;FLAVOR:Marlin
;TIME:1572
;Filament used: 0.845601m
;Layer height: 0.2
;MINX:92.566
;MINY:86.05
;MINZ:0.2
;MAXX:128
;MAXY:133.95
;MAXZ:12
;Generated with Creality Slicer 4.8.2-218
M140 S60
M105
M190 S60
M104 S235
M105
M109 S235
M82 ;absolute extrusion mode

G28 ;Home

G92 E0 ;Reset Extruder
G1 Z2.0 F3000 ;Move Z Axis up
G1 X10.1 Y20 Z0.28 F5000.0 ;Move to start position
G1 X10.1 Y200.0 Z0.28 F1500.0 E15 ;Draw the first line
G1 X10.4 Y200.0 Z0.28 F5000.0 ;Move to side a little
G1 X10.4 Y20 Z0.28 F1500.0 E30 ;Draw the second line
G92 E0 ;Reset Extruder
G1 Z2.0 F3000 ;Move Z Axis up

G92 E0
G92 E0
G1 F2700 E-5
;LAYER_COUNT:60
;LAYER:0
M107
G0 F6000 X95.771 Y89.408 Z0.2
;TYPE:SKIRT
G1 F2700 E0
G1 F1200 X96.46 Y88.771 E0.03121
G1 X97.2 Y88.195 E0.0624
G1 X97.987 Y87.685 E0.09359
G1 X98.814 Y87.243 E0.12478
G1 X99.896 Y86.793 E0.16375
G1 X100.096 Y86.722 E0.17081
G1 X100.992 Y86.446 E0.202
G1 X101.909 Y86.248 E0.2332
G1 X102.587 Y86.152 E0.25597
G1 X102.725 Y86.137 E0.26059
G1 X103.688 Y86.075 E0.29269
G1 X104.807 Y86.052 E0.32991
G1 X105.033 Y86.05 E0.33743
G1 X116.293 Y86.05 E0.71194
G1 X117.149 Y86.061 E0.74041
G1 X118.085 Y86.115 E0.7716
G1 X119.013 Y86.247 E0.80277
G1 X119.927 Y86.459 E0.83398
G1 X120.819 Y86.748 E0.86516
G1 X121.684 Y87.111 E0.89636
G1 X122.514 Y87.547 E0.92755
G1 X123.305 Y88.052 E0.95876
G1 X124.049 Y88.623 E0.98995
G1 X124.742 Y89.255 E1.02115
G1 X125.379 Y89.943 E1.05233
G1 X125.954 Y90.684 E1.08353
G1 X126.465 Y91.47 E1.11471
G1 X126.907 Y92.298 E1.14593
G1 X127.276 Y93.16 E1.17712
G1 X127.571 Y94.05 E1.2083
G1 X127.789 Y94.962 E1.23949
G1 X127.929 Y95.89 E1.2707
G1 X127.986 Y96.734 E1.29884
G1 X127.995 Y97.038 E1.30895
G1 X128 Y97.364 E1.3198
G1 X127.999 Y103.449 E1.52219
G1 X127.989 Y104.154 E1.54564
G1 X127.98 Y104.469 E1.55612
G1 X127.929 Y105.641 E1.59514
G1 X127.894 Y106.27 E1.61609
G1 X127.823 Y108.801 E1.7003
G1 X127.823 Y111.325 E1.78425
G1 X127.895 Y113.831 E1.86764
G1 X127.976 Y115.434 E1.92102
G1 X127.995 Y115.987 E1.93942
G1 X128 Y116.32 E1.9505
G1 X127.999 Y122.35 E2.15106
G1 X127.99 Y123.077 E2.17524
G1 X127.939 Y124.014 E2.20645
G1 X127.807 Y124.942 E2.23763
G1 X127.598 Y125.856 E2.26881
G1 X127.311 Y126.749 E2.30001
G1 X126.949 Y127.615 E2.33123
G1 X126.515 Y128.446 E2.36241
G1 X126.011 Y129.237 E2.39361
G1 X125.442 Y129.982 E2.42479
G1 X124.811 Y130.677 E2.45601
G1 X124.124 Y131.315 E2.48719
G1 X123.385 Y131.892 E2.51837
G1 X122.599 Y132.404 E2.54957
G1 X121.773 Y132.847 E2.58075
G1 X120.911 Y133.219 E2.61197
G1 X120.022 Y133.515 E2.64314
G1 X119.11 Y133.735 E2.67434
G1 X118.183 Y133.876 E2.70553
G1 X117.299 Y133.937 E2.735
G1 X116.978 Y133.946 E2.74568
G1 X116.67 Y133.95 E2.75593
G1 X104.553 Y133.949 E3.15894
G1 X103.897 Y133.94 E3.18076
G1 X102.601 Y133.845 E3.22398
G1 X102.277 Y133.802 E3.23485
G1 X101.353 Y133.639 E3.26606
G1 X100.447 Y133.398 E3.29724
G1 X99.799 Y133.174 E3.32004
G1 X99.655 Y133.119 E3.32517
G1 X98.794 Y132.747 E3.35637
G1 X97.968 Y132.304 E3.38754
G1 X97.182 Y131.791 E3.41876
G1 X96.443 Y131.214 E3.44994
G1 X95.756 Y130.575 E3.48115
G1 X95.126 Y129.881 E3.51232
G1 X94.557 Y129.135 E3.54353
G1 X94.054 Y128.344 E3.57471
G1 X93.62 Y127.512 E3.60592
G1 X93.259 Y126.647 E3.63709
G1 X92.972 Y125.754 E3.66829
G1 X92.763 Y124.839 E3.69951
G1 X92.632 Y123.911 E3.73068
G1 X92.581 Y123.023 E3.76026
G1 X92.567 Y122.166 E3.78877
G1 X92.566 Y121.163 E3.82213
G1 X92.573 Y119.211 E3.88705
G1 X92.573 Y100.75 E4.50107
G1 X92.567 Y97.697 E4.60261
G1 X92.577 Y97.001 E4.62576
G1 X92.631 Y96.065 E4.65695
G1 X92.764 Y95.136 E4.68816
G1 X92.975 Y94.223 E4.71933
G1 X93.264 Y93.33 E4.75055
G1 X93.627 Y92.466 E4.78172
G1 X94.063 Y91.635 E4.81293
G1 X94.569 Y90.845 E4.84413
G1 X95.139 Y90.101 E4.87531
G1 X95.771 Y89.408 E4.9065
G0 F6000 X96.163 Y89.582
G1 F1200 X96.848 Y88.968 E4.9371
G1 X97.584 Y88.415 E4.96772
G1 X98.366 Y87.928 E4.99836
G1 X99.186 Y87.511 E5.02895
G1 X100.03 Y87.17 E5.05923
G1 X100.23 Y87.099 E5.06629
G1 X101.11 Y86.829 E5.0969
G1 X102.01 Y86.636 E5.12752
G1 X102.631 Y86.55 E5.14837
G1 X102.769 Y86.535 E5.15299
G1 X103.696 Y86.475 E5.18388
G1 X104.815 Y86.452 E5.22111
G1 X105.033 Y86.45 E5.22836
G1 X116.293 Y86.45 E5.60287
G1 X117.143 Y86.461 E5.63114
G1 X118.062 Y86.514 E5.66176
G1 X118.973 Y86.647 E5.69238
G1 X119.869 Y86.858 E5.723
G1 X120.743 Y87.146 E5.7536
G1 X121.59 Y87.509 E5.78425
G1 X122.401 Y87.944 E5.81486
G1 X123.171 Y88.448 E5.84547
G1 X123.895 Y89.017 E5.8761
G1 X124.567 Y89.647 E5.90674
G1 X125.182 Y90.332 E5.93735
G1 X125.735 Y91.068 E5.96797
G1 X126.222 Y91.849 E5.99859
G1 X126.639 Y92.67 E6.02921
G1 X126.984 Y93.524 E6.05985
G1 X127.253 Y94.404 E6.09045
G1 X127.445 Y95.305 E6.12109
G1 X127.558 Y96.218 E6.15169
G1 X127.586 Y96.746 E6.16928
G1 X127.595 Y97.05 E6.17939
G1 X127.6 Y97.364 E6.18984
G1 X127.599 Y103.443 E6.39203
G1 X127.589 Y104.148 E6.41548
G1 X127.58 Y104.452 E6.42559
G1 X127.529 Y105.619 E6.46444
G1 X127.494 Y106.237 E6.48503
G1 X127.423 Y108.79 E6.56998
G1 X127.423 Y111.302 E6.65353
G1 X127.498 Y113.908 E6.74024
G1 X127.576 Y115.454 E6.79173
G1 X127.585 Y115.669 E6.79888
G1 X127.595 Y115.999 E6.80986
G1 X127.6 Y116.32 E6.82054
G1 X127.599 Y122.345 E7.02093
G1 X127.59 Y123.072 E7.04512
G1 X127.539 Y123.991 E7.07573
G1 X127.408 Y124.903 E7.10637
G1 X127.198 Y125.799 E7.13698
G1 X126.912 Y126.674 E7.1676
G1 X126.551 Y127.521 E7.19822
G1 X126.117 Y128.333 E7.22885
G1 X125.615 Y129.105 E7.25947
G1 X125.047 Y129.83 E7.29011
G1 X124.419 Y130.503 E7.32072
G1 X123.735 Y131.119 E7.35134
G1 X123 Y131.673 E7.38195
G1 X122.22 Y132.162 E7.41257
G1 X121.4 Y132.581 E7.4432
G1 X120.547 Y132.927 E7.47381
G1 X119.667 Y133.198 E7.50444
G1 X118.767 Y133.391 E7.53505
G1 X117.853 Y133.506 E7.56569
G1 X117.288 Y133.537 E7.58451
G1 X116.967 Y133.546 E7.59519
G1 X116.67 Y133.55 E7.60507
G1 X104.559 Y133.549 E8.00789
G1 X103.903 Y133.54 E8.02971
G1 X102.653 Y133.449 E8.07139
G1 X102.329 Y133.406 E8.08226
G1 X101.423 Y133.245 E8.11287
G1 X100.534 Y133.007 E8.14348
G1 X99.942 Y132.8 E8.16434
G1 X99.798 Y132.745 E8.16947
G1 X98.953 Y132.38 E8.20008
G1 X98.143 Y131.942 E8.23071
G1 X97.374 Y131.436 E8.26132
G1 X96.652 Y130.865 E8.29194
G1 X95.982 Y130.234 E8.32255
G1 X95.369 Y129.547 E8.35318
G1 X94.818 Y128.809 E8.38381
G1 X94.334 Y128.026 E8.41442
G1 X93.919 Y127.204 E8.44505
G1 X93.577 Y126.349 E8.47568
G1 X93.31 Y125.468 E8.5063
G1 X93.121 Y124.567 E8.53692
G1 X93.011 Y123.653 E8.56754
G1 X92.981 Y123.016 E8.58875
G1 X92.967 Y122.159 E8.61725
G1 X92.966 Y121.164 E8.65035
G1 X92.973 Y119.212 E8.71527
G1 X92.973 Y100.75 E9.32932
G1 X92.967 Y97.703 E9.43066
G1 X92.977 Y97.007 E9.45382
G1 X93.03 Y96.088 E9.48443
G1 X93.163 Y95.177 E9.51505
G1 X93.374 Y94.28 E9.5457
G1 X93.663 Y93.406 E9.57632
G1 X94.026 Y92.56 E9.60694
G1 X94.461 Y91.749 E9.63755
G1 X94.965 Y90.978 E9.66818
G1 X95.533 Y90.254 E9.69879
G1 X96.163 Y89.582 E9.72943
G0 F6000 X96.554 Y89.761
G1 F1200 X97.236 Y89.169 E9.75946
G1 X97.968 Y88.639 E9.78952
G1 X98.743 Y88.177 E9.81953
G1 X99.557 Y87.784 E9.8496
G1 X100.164 Y87.547 E9.87127
G1 X100.364 Y87.476 E9.87833
G1 X101.227 Y87.212 E9.90834
G1 X102.111 Y87.025 E9.9384
G1 X102.674 Y86.948 E9.9573
G1 X102.812 Y86.933 E9.96191
G1 X103.704 Y86.875 E9.99164
G1 X104.823 Y86.852 E10.02887
G1 X105.033 Y86.85 E10.03586
G1 X116.293 Y86.85 E10.41036
G1 X117.137 Y86.861 E10.43844
G1 X118.039 Y86.914 E10.46849
G1 X118.932 Y87.046 E10.49852
G1 X119.81 Y87.257 E10.52855
G1 X120.666 Y87.545 E10.55859
G1 X121.493 Y87.907 E10.58861
G1 X122.285 Y88.342 E10.61867
G1 X123.036 Y88.844 E10.64871
G1 X123.739 Y89.411 E10.67875
G1 X124.389 Y90.038 E10.70879
G1 X124.981 Y90.72 E10.73883
G1 X125.511 Y91.451 E10.76886
G1 X125.973 Y92.227 E10.7989
G1 X126.366 Y93.04 E10.82893
G1 X126.684 Y93.885 E10.85896
G1 X126.927 Y94.755 E10.889
G1 X127.092 Y95.643 E10.91904
G1 X127.187 Y96.758 E10.95626
G1 X127.196 Y97.062 E10.96638
G1 X127.2 Y97.364 E10.97642
G1 X127.199 Y103.438 E11.17845
G1 X127.189 Y104.143 E11.2019
G1 X127.181 Y104.435 E11.21161
G1 X127.13 Y105.597 E11.2503
G1 X127.094 Y106.24 E11.27172
G1 X127.023 Y108.779 E11.3562
G1 X127.023 Y111.314 E11.44051
G1 X127.097 Y113.893 E11.52633
G1 X127.177 Y115.474 E11.57898
G1 X127.195 Y116.011 E11.59685
G1 X127.2 Y116.32 E11.60713
G1 X127.199 Y122.34 E11.80735
G1 X127.19 Y123.067 E11.83153
G1 X127.139 Y123.969 E11.86158
G1 X127.008 Y124.863 E11.89164
G1 X126.799 Y125.741 E11.92165
G1 X126.513 Y126.598 E11.9517
G1 X126.152 Y127.426 E11.98175
G1 X125.72 Y128.218 E12.01175
G1 X125.219 Y128.97 E12.04181
G1 X124.653 Y129.674 E12.07185
G1 X124.028 Y130.325 E12.10187
G1 X123.347 Y130.919 E12.13192
G1 X122.616 Y131.45 E12.16197
G1 X121.842 Y131.914 E12.19199
G1 X121.029 Y132.308 E12.22204
G1 X120.185 Y132.628 E12.25206
G1 X119.315 Y132.873 E12.28212
G1 X118.428 Y133.039 E12.31213
G1 X117.277 Y133.137 E12.35055
G1 X116.956 Y133.146 E12.36123
G1 X116.67 Y133.15 E12.37075
G1 X104.564 Y133.149 E12.7734
G1 X103.908 Y133.14 E12.79522
G1 X102.706 Y133.052 E12.8353
G1 X102.382 Y133.009 E12.84617
G1 X101.493 Y132.851 E12.8762
G1 X100.621 Y132.615 E12.90625
G1 X100.085 Y132.427 E12.92514
G1 X99.941 Y132.372 E12.93027
G1 X99.112 Y132.012 E12.96033
G1 X98.318 Y131.581 E12.99038
G1 X97.566 Y131.082 E13.0204
G1 X96.861 Y130.517 E13.05044
G1 X96.209 Y129.893 E13.08046
G1 X95.614 Y129.213 E13.11051
G1 X95.082 Y128.484 E13.14053
G1 X94.616 Y127.71 E13.17058
G1 X94.221 Y126.898 E13.20061
G1 X93.899 Y126.054 E13.23066
G1 X93.653 Y125.185 E13.2607
G1 X93.484 Y124.298 E13.29073
G1 X93.381 Y123.01 E13.3337
G1 X93.367 Y122.153 E13.36221
G1 X93.366 Y121.165 E13.39507
G1 X93.373 Y119.213 E13.46
G1 X93.373 Y100.75 E14.07408
G1 X93.367 Y97.708 E14.17526
G1 X93.377 Y97.012 E14.19841
G1 X93.43 Y96.111 E14.22843
G1 X93.562 Y95.218 E14.25845
G1 X93.773 Y94.339 E14.28852
G1 X94.061 Y93.483 E14.31856
G1 X94.424 Y92.656 E14.3486
G1 X94.858 Y91.864 E14.37863
G1 X95.36 Y91.114 E14.40865
G1 X95.927 Y90.411 E14.43869
G1 X96.554 Y89.761 E14.46873
G1 F2700 E9.46873
;MESH:MotorHolder.stl
G0 F6000 X102.903 Y98.707
G0 X103.987 Y98.703
G0 X104.348 Y97.832
G0 X116.218 Y97.832
G0 X116.218 Y103.218
G0 X106.359 Y103.224
G0 X106.572 Y116.418
G0 X116.218 Y116.772
G0 X116.4 Y122.35
;TYPE:WALL-INNER
G1 F2700 E14.46873
G1 F1200 X104.167 Y122.35 E14.8756
G1 X104.166 Y121.299 E14.91056
G1 X104.173 Y119.251 E14.97867
G1 X104.173 Y100.749 E15.59405
G1 X104.166 Y97.849 E15.69051
G1 X104.166 Y97.65 E15.69713
G1 X104.365 Y97.65 E15.70141
G1 X116.4 Y97.65 E16.10169
G1 X116.4 Y103.4 E16.29294
G1 X106.4 Y103.4 E16.62554
G1 X106.4 Y116.59 E17.06424
G1 X116.4 Y116.59 E17.39684
G1 X116.4 Y122.35 E17.58842
G0 F6000 X116.8 Y122.75
;TYPE:WALL-OUTER
G1 F1200 X104.014 Y122.75 E18.01369
G1 X103.767 Y122.713 E18.02199
G1 X103.766 Y121.298 E18.06906
G1 X103.773 Y119.25 E18.13717
G1 X103.773 Y100.75 E18.75249
G1 X103.767 Y98.703 E18.82057
G1 X103.766 Y97.294 E18.86743
G1 X104.009 Y97.25 E18.87565
G1 X116.8 Y97.25 E19.30108
G1 X116.8 Y103.8 E19.51893
G1 X106.8 Y103.8 E19.85153
G1 X106.8 Y116.19 E20.26363
G1 X116.8 Y116.19 E20.59623
G1 X116.8 Y122.75 E20.81441
G0 F6000 X116.53 Y122.48
G0 X116.29 Y121.96
G0 X116.01 Y121.96
;TYPE:SKIN
G1 F1200 X104.557 Y121.96 E21.19534
G1 X104.556 Y121.299 E21.21733
G1 X104.563 Y119.251 E21.28544
G1 X104.563 Y100.749 E21.90082
G1 X104.556 Y98.04 E21.99092
G1 X116.01 Y98.04 E22.37189
G1 X116.01 Y103.01 E22.53719
G1 X106.01 Y103.01 E22.86979
G1 X106.01 Y116.98 E23.33443
G1 X116.01 Y116.98 E23.66704
G1 X116.01 Y121.96 E23.83267
G0 F6000 X116.29 Y121.96
G0 X104.828 Y122.24
G0 X104.828 Y121.799
G1 F1200 X104.716 Y121.686 E23.83796
G0 F6000 X104.716 Y121.121
G1 F1200 X105.394 Y121.799 E23.86985
G0 F6000 X105.959 Y121.799
G1 F1200 X104.718 Y120.557 E23.92825
G0 F6000 X104.72 Y119.993
G1 F1200 X106.525 Y121.799 E24.01318
G0 F6000 X107.091 Y121.799
G1 F1200 X104.722 Y119.43 E24.12461
G0 F6000 X104.722 Y118.864
G1 F1200 X107.657 Y121.799 E24.26266
G0 F6000 X108.222 Y121.799
G1 F1200 X104.722 Y118.298 E24.42731
G0 F6000 X104.722 Y117.733
G1 F1200 X108.788 Y121.799 E24.61856
G0 F6000 X109.354 Y121.799
G1 F1200 X104.722 Y117.167 E24.83644
G0 F6000 X104.722 Y116.601
G1 F1200 X109.919 Y121.799 E25.08091
G0 F6000 X110.485 Y121.799
G1 F1200 X104.722 Y116.036 E25.35199
G0 F6000 X104.722 Y115.47
G1 F1200 X105.849 Y116.597 E25.405
G0 F6000 X105.849 Y116.031
G1 F1200 X104.722 Y114.904 E25.45801
G0 F6000 X104.722 Y114.339
G1 F1200 X105.849 Y115.466 E25.51102
G0 F6000 X105.849 Y114.9
G1 F1200 X104.722 Y113.773 E25.56403
G0 F6000 X104.722 Y113.207
G1 F1200 X105.849 Y114.334 E25.61704
G0 F6000 X105.849 Y113.769
G1 F1200 X104.722 Y112.642 E25.67005
G0 F6000 X104.722 Y112.076
G1 F1200 X105.849 Y113.203 E25.72306
G0 F6000 X105.849 Y112.637
G1 F1200 X104.722 Y111.51 E25.77607
G0 F6000 X104.722 Y110.945
G1 F1200 X105.849 Y112.072 E25.82908
G0 F6000 X105.849 Y111.506
G1 F1200 X104.722 Y110.379 E25.88209
G0 F6000 X104.722 Y109.813
G1 F1200 X105.849 Y110.94 E25.9351
G0 F6000 X105.849 Y110.375
G1 F1200 X104.722 Y109.247 E25.98814
G0 F6000 X104.722 Y108.682
G1 F1200 X105.849 Y109.809 E26.04115
G0 F6000 X105.849 Y109.243
G1 F1200 X104.722 Y108.116 E26.09416
G0 F6000 X104.722 Y107.55
G1 F1200 X105.849 Y108.678 E26.14719
G0 F6000 X105.849 Y108.112
G1 F1200 X104.722 Y106.985 E26.2002
G0 F6000 X104.722 Y106.419
G1 F1200 X105.849 Y107.546 E26.25322
G0 F6000 X105.849 Y106.981
G1 F1200 X104.722 Y105.853 E26.30625
G0 F6000 X104.722 Y105.288
G1 F1200 X105.849 Y106.415 E26.35926
G0 F6000 X105.849 Y105.849
G1 F1200 X104.722 Y104.722 E26.41227
G0 F6000 X104.722 Y104.156
G1 F1200 X105.849 Y105.283 E26.46528
G0 F6000 X105.849 Y104.718
G1 F1200 X104.722 Y103.591 E26.51829
G0 F6000 X104.722 Y103.025
G1 F1200 X105.849 Y104.152 E26.5713
G0 F6000 X105.849 Y103.586
G1 F1200 X104.722 Y102.459 E26.62431
G0 F6000 X104.722 Y101.894
G1 F1200 X105.849 Y103.021 E26.67732
G0 F6000 X106.244 Y102.85
G1 F1200 X104.722 Y101.328 E26.74891
G0 F6000 X104.722 Y100.762
G1 F1200 X106.809 Y102.85 E26.8471
G0 F6000 X107.375 Y102.85
G1 F1200 X104.721 Y100.195 E26.97196
G0 F6000 X104.719 Y99.628
G1 F1200 X107.941 Y102.85 E27.12352
G0 F6000 X108.506 Y102.85
G1 F1200 X104.718 Y99.061 E27.30172
G0 F6000 X104.716 Y98.494
G1 F1200 X109.072 Y102.85 E27.50661
G0 F6000 X109.638 Y102.85
G1 F1200 X104.988 Y98.2 E27.72533
G0 F6000 X105.554 Y98.2
G1 F1200 X110.204 Y102.85 E27.94405
G0 F6000 X110.769 Y102.85
G1 F1200 X106.119 Y98.2 E28.16277
G0 F6000 X106.685 Y98.2
G1 F1200 X111.335 Y102.85 E28.3815
G0 F6000 X111.901 Y102.85
G1 F1200 X107.251 Y98.2 E28.60022
G0 F6000 X107.816 Y98.2
G1 F1200 X112.466 Y102.85 E28.81894
G0 F6000 X113.032 Y102.85
G1 F1200 X108.382 Y98.2 E29.03766
G0 F6000 X108.948 Y98.2
G1 F1200 X113.598 Y102.85 E29.25638
G0 F6000 X114.163 Y102.85
G1 F1200 X109.513 Y98.2 E29.4751
G0 F6000 X110.079 Y98.2
G1 F1200 X114.729 Y102.85 E29.69383
G0 F6000 X115.295 Y102.85
G1 F1200 X110.645 Y98.2 E29.91255
G0 F6000 X111.21 Y98.2
G1 F1200 X115.849 Y102.838 E30.13073
G0 F6000 X115.849 Y102.273
G1 F1200 X111.776 Y98.2 E30.32231
G0 F6000 X112.342 Y98.2
G1 F1200 X115.849 Y101.707 E30.48727
G0 F6000 X115.849 Y101.141
G1 F1200 X112.907 Y98.2 E30.62563
G0 F6000 X113.473 Y98.2
G1 F1200 X115.849 Y100.576 E30.73739
G0 F6000 X115.849 Y100.01
G1 F1200 X114.039 Y98.2 E30.82252
G0 F6000 X114.605 Y98.2
G1 F1200 X115.849 Y99.444 E30.88104
G0 F6000 X115.849 Y98.878
G1 F1200 X115.17 Y98.2 E30.91295
G0 F6000 X115.736 Y98.2
G1 F1200 X115.849 Y98.313 E30.91827
G1 F2700 E25.91827
G0 F6000 X116.29 Y98.313
G0 X116.218 Y103.218
G0 X106.572 Y103.572
G0 X106.572 Y116.418
G0 X115.442 Y116.7
G0 X115.442 Y117.139
G1 F2700 E30.91827
