;FLAVOR:Marlin
;TIME:1551
;Filament used: 0.810503m
;Layer height: 0.2
;MINX:92.566
;MINY:86.05
;MINZ:0.2
;MAXX:128
;MAXY:133.95
;MAXZ:12
;Generated with Creality Slicer 4.8.2-218
M140 S60
M105
M190 S60
M104 S225
M105
M109 S225
M82 ;absolute extrusion mode

G28 ;Home

G92 E0 ;Reset Extruder
G1 Z2.0 F3000 ;Move Z Axis up
G1 X10.1 Y20 Z0.28 F5000.0 ;Move to start position
G1 X10.1 Y200.0 Z0.28 F1500.0 E15 ;Draw the first line
G1 X10.4 Y200.0 Z0.28 F5000.0 ;Move to side a little
G1 X10.4 Y20 Z0.28 F1500.0 E30 ;Draw the second line
G92 E0 ;Reset Extruder
G1 Z2.0 F3000 ;Move Z Axis up

G92 E0
G92 E0
G1 F2700 E-5
;LAYER_COUNT:60
;LAYER:0
M107
G0 F6000 X95.771 Y89.408 Z0.2
;TYPE:SKIRT
G1 F2700 E0
G1 F1200 X96.46 Y88.771 E0.03121
G1 X97.2 Y88.195 E0.0624
G1 X97.987 Y87.685 E0.09359
G1 X98.814 Y87.243 E0.12478
G1 X99.896 Y86.793 E0.16375
G1 X100.096 Y86.722 E0.17081
G1 X100.992 Y86.446 E0.202
G1 X101.909 Y86.248 E0.2332
G1 X102.587 Y86.152 E0.25597
G1 X102.725 Y86.137 E0.26059
G1 X103.688 Y86.075 E0.29269
G1 X104.807 Y86.052 E0.32991
G1 X105.033 Y86.05 E0.33743
G1 X116.293 Y86.05 E0.71194
G1 X117.149 Y86.061 E0.74041
G1 X118.085 Y86.115 E0.7716
G1 X119.013 Y86.247 E0.80277
G1 X119.927 Y86.459 E0.83398
G1 X120.819 Y86.748 E0.86516
G1 X121.684 Y87.111 E0.89636
G1 X122.514 Y87.547 E0.92755
G1 X123.305 Y88.052 E0.95876
G1 X124.049 Y88.623 E0.98995
G1 X124.742 Y89.255 E1.02115
G1 X125.379 Y89.943 E1.05233
G1 X125.954 Y90.684 E1.08353
G1 X126.465 Y91.47 E1.11471
G1 X126.907 Y92.298 E1.14593
G1 X127.276 Y93.16 E1.17712
G1 X127.571 Y94.05 E1.2083
G1 X127.789 Y94.962 E1.23949
G1 X127.929 Y95.89 E1.2707
G1 X127.986 Y96.734 E1.29884
G1 X127.995 Y97.038 E1.30895
G1 X128 Y97.364 E1.3198
G1 X127.999 Y102.949 E1.50556
G1 X127.989 Y103.654 E1.52901
G1 X127.98 Y103.97 E1.53952
G1 X127.947 Y104.704 E1.56396
G1 X127.862 Y106.194 E1.6136
G1 X127.791 Y108.684 E1.69645
G1 X127.791 Y111.21 E1.78046
G1 X127.864 Y113.809 E1.86694
G1 X127.928 Y115.112 E1.91033
G1 X127.971 Y115.851 E1.93495
G1 X127.985 Y116.157 E1.94514
G1 X127.995 Y116.487 E1.95612
G1 X128 Y116.82 E1.9672
G1 X127.999 Y122.35 E2.15113
G1 X127.99 Y123.077 E2.17531
G1 X127.939 Y124.014 E2.20652
G1 X127.807 Y124.942 E2.2377
G1 X127.598 Y125.856 E2.26888
G1 X127.311 Y126.749 E2.30008
G1 X126.949 Y127.615 E2.3313
G1 X126.515 Y128.446 E2.36248
G1 X126.011 Y129.237 E2.39367
G1 X125.442 Y129.982 E2.42485
G1 X124.811 Y130.677 E2.45607
G1 X124.124 Y131.315 E2.48726
G1 X123.385 Y131.892 E2.51844
G1 X122.599 Y132.404 E2.54964
G1 X121.773 Y132.847 E2.58082
G1 X120.911 Y133.219 E2.61204
G1 X120.022 Y133.515 E2.64321
G1 X119.11 Y133.735 E2.67441
G1 X118.183 Y133.876 E2.7056
G1 X117.299 Y133.937 E2.73507
G1 X116.978 Y133.946 E2.74575
G1 X116.67 Y133.95 E2.75599
G1 X104.553 Y133.949 E3.15901
G1 X103.897 Y133.94 E3.18083
G1 X102.601 Y133.845 E3.22405
G1 X102.277 Y133.802 E3.23492
G1 X101.353 Y133.639 E3.26613
G1 X100.447 Y133.398 E3.29731
G1 X99.799 Y133.174 E3.32011
G1 X99.655 Y133.119 E3.32524
G1 X98.794 Y132.747 E3.35643
G1 X97.968 Y132.304 E3.38761
G1 X97.182 Y131.791 E3.41883
G1 X96.443 Y131.214 E3.45001
G1 X95.756 Y130.575 E3.48122
G1 X95.126 Y129.881 E3.51239
G1 X94.557 Y129.135 E3.5436
G1 X94.054 Y128.344 E3.57477
G1 X93.62 Y127.512 E3.60599
G1 X93.259 Y126.647 E3.63716
G1 X92.972 Y125.754 E3.66836
G1 X92.763 Y124.839 E3.69957
G1 X92.632 Y123.911 E3.73075
G1 X92.581 Y123.023 E3.76033
G1 X92.567 Y122.166 E3.78884
G1 X92.566 Y121.163 E3.8222
G1 X92.573 Y119.211 E3.88712
G1 X92.573 Y100.75 E4.50114
G1 X92.567 Y97.697 E4.60268
G1 X92.577 Y97.001 E4.62583
G1 X92.631 Y96.065 E4.65701
G1 X92.764 Y95.136 E4.68823
G1 X92.975 Y94.223 E4.7194
G1 X93.264 Y93.33 E4.75061
G1 X93.627 Y92.466 E4.78178
G1 X94.063 Y91.635 E4.813
G1 X94.569 Y90.845 E4.8442
G1 X95.139 Y90.101 E4.87537
G1 X95.771 Y89.408 E4.90657
G0 F6000 X96.163 Y89.582
G1 F1200 X96.848 Y88.968 E4.93716
G1 X97.584 Y88.415 E4.96778
G1 X98.366 Y87.928 E4.99842
G1 X99.186 Y87.511 E5.02902
G1 X100.03 Y87.17 E5.0593
G1 X100.23 Y87.099 E5.06636
G1 X101.11 Y86.829 E5.09697
G1 X102.01 Y86.636 E5.12759
G1 X102.631 Y86.55 E5.14844
G1 X102.769 Y86.535 E5.15305
G1 X103.696 Y86.475 E5.18395
G1 X104.815 Y86.452 E5.22118
G1 X105.033 Y86.45 E5.22843
G1 X116.293 Y86.45 E5.60294
G1 X117.143 Y86.461 E5.63121
G1 X118.062 Y86.514 E5.66183
G1 X118.973 Y86.647 E5.69245
G1 X119.869 Y86.858 E5.72306
G1 X120.743 Y87.146 E5.75367
G1 X121.59 Y87.509 E5.78432
G1 X122.401 Y87.944 E5.81493
G1 X123.171 Y88.448 E5.84554
G1 X123.895 Y89.017 E5.87617
G1 X124.567 Y89.647 E5.9068
G1 X125.182 Y90.332 E5.93742
G1 X125.735 Y91.068 E5.96804
G1 X126.222 Y91.849 E5.99865
G1 X126.639 Y92.67 E6.02928
G1 X126.984 Y93.524 E6.05991
G1 X127.253 Y94.404 E6.09052
G1 X127.445 Y95.305 E6.12116
G1 X127.558 Y96.218 E6.15176
G1 X127.586 Y96.746 E6.16934
G1 X127.595 Y97.05 E6.17946
G1 X127.6 Y97.364 E6.18991
G1 X127.599 Y102.943 E6.37546
G1 X127.589 Y103.648 E6.39891
G1 X127.58 Y103.953 E6.40906
G1 X127.548 Y104.681 E6.4333
G1 X127.464 Y106.159 E6.48254
G1 X127.391 Y108.708 E6.56735
G1 X127.391 Y111.221 E6.65094
G1 X127.463 Y113.793 E6.73651
G1 X127.533 Y115.197 E6.78327
G1 X127.572 Y115.874 E6.80582
G1 X127.585 Y116.169 E6.81564
G1 X127.595 Y116.499 E6.82663
G1 X127.6 Y116.82 E6.8373
G1 X127.599 Y122.345 E7.02107
G1 X127.59 Y123.072 E7.04525
G1 X127.539 Y123.991 E7.07586
G1 X127.408 Y124.903 E7.10651
G1 X127.198 Y125.799 E7.13711
G1 X126.912 Y126.674 E7.16773
G1 X126.551 Y127.521 E7.19836
G1 X126.117 Y128.333 E7.22898
G1 X125.615 Y129.105 E7.25961
G1 X125.047 Y129.83 E7.29024
G1 X124.419 Y130.503 E7.32085
G1 X123.735 Y131.119 E7.35147
G1 X123 Y131.673 E7.38208
G1 X122.22 Y132.162 E7.4127
G1 X121.4 Y132.581 E7.44333
G1 X120.547 Y132.927 E7.47395
G1 X119.667 Y133.198 E7.50457
G1 X118.767 Y133.391 E7.53519
G1 X117.853 Y133.506 E7.56583
G1 X117.288 Y133.537 E7.58465
G1 X116.967 Y133.546 E7.59533
G1 X116.67 Y133.55 E7.60521
G1 X104.559 Y133.549 E8.00802
G1 X103.903 Y133.54 E8.02984
G1 X102.653 Y133.449 E8.07153
G1 X102.329 Y133.406 E8.0824
G1 X101.423 Y133.245 E8.113
G1 X100.534 Y133.007 E8.14361
G1 X99.942 Y132.8 E8.16447
G1 X99.798 Y132.745 E8.1696
G1 X98.953 Y132.38 E8.20021
G1 X98.143 Y131.942 E8.23084
G1 X97.374 Y131.436 E8.26146
G1 X96.652 Y130.865 E8.29207
G1 X95.982 Y130.234 E8.32268
G1 X95.369 Y129.547 E8.35331
G1 X94.818 Y128.809 E8.38394
G1 X94.334 Y128.026 E8.41456
G1 X93.919 Y127.204 E8.44518
G1 X93.577 Y126.349 E8.47581
G1 X93.31 Y125.468 E8.50643
G1 X93.121 Y124.567 E8.53705
G1 X93.011 Y123.653 E8.56767
G1 X92.981 Y123.016 E8.58888
G1 X92.967 Y122.159 E8.61739
G1 X92.966 Y121.164 E8.65048
G1 X92.973 Y119.212 E8.7154
G1 X92.973 Y100.75 E9.32945
G1 X92.967 Y97.703 E9.4308
G1 X92.977 Y97.007 E9.45395
G1 X93.03 Y96.088 E9.48456
G1 X93.163 Y95.177 E9.51519
G1 X93.374 Y94.28 E9.54583
G1 X93.663 Y93.406 E9.57645
G1 X94.026 Y92.56 E9.60707
G1 X94.461 Y91.749 E9.63768
G1 X94.965 Y90.978 E9.66832
G1 X95.533 Y90.254 E9.69892
G1 X96.163 Y89.582 E9.72956
G0 F6000 X96.554 Y89.761
G1 F1200 X97.236 Y89.169 E9.7596
G1 X97.968 Y88.639 E9.78966
G1 X98.743 Y88.177 E9.81966
G1 X99.557 Y87.784 E9.84973
G1 X100.164 Y87.547 E9.8714
G1 X100.364 Y87.476 E9.87846
G1 X101.227 Y87.212 E9.90848
G1 X102.111 Y87.025 E9.93853
G1 X102.674 Y86.948 E9.95743
G1 X102.812 Y86.933 E9.96205
G1 X103.704 Y86.875 E9.99178
G1 X104.823 Y86.852 E10.029
G1 X105.033 Y86.85 E10.03599
G1 X116.293 Y86.85 E10.4105
G1 X117.137 Y86.861 E10.43857
G1 X118.039 Y86.914 E10.46862
G1 X118.932 Y87.046 E10.49865
G1 X119.81 Y87.257 E10.52868
G1 X120.666 Y87.545 E10.55872
G1 X121.493 Y87.907 E10.58875
G1 X122.285 Y88.342 E10.6188
G1 X123.036 Y88.844 E10.64884
G1 X123.739 Y89.411 E10.67888
G1 X124.389 Y90.038 E10.70892
G1 X124.981 Y90.72 E10.73896
G1 X125.511 Y91.451 E10.76899
G1 X125.973 Y92.227 E10.79903
G1 X126.366 Y93.04 E10.82906
G1 X126.684 Y93.885 E10.85909
G1 X126.927 Y94.755 E10.88914
G1 X127.092 Y95.643 E10.91918
G1 X127.187 Y96.758 E10.9564
G1 X127.196 Y97.062 E10.96651
G1 X127.2 Y97.364 E10.97656
G1 X127.199 Y102.938 E11.16195
G1 X127.189 Y103.643 E11.1854
G1 X127.181 Y103.936 E11.19515
G1 X127.149 Y104.659 E11.21922
G1 X127.064 Y106.162 E11.26929
G1 X126.991 Y108.696 E11.3536
G1 X126.991 Y111.232 E11.43795
G1 X127.063 Y113.824 E11.5242
G1 X127.13 Y115.158 E11.56862
G1 X127.173 Y115.897 E11.59324
G1 X127.185 Y116.181 E11.6027
G1 X127.195 Y116.511 E11.61368
G1 X127.2 Y116.82 E11.62396
G1 X127.199 Y122.34 E11.80755
G1 X127.19 Y123.067 E11.83173
G1 X127.139 Y123.969 E11.86178
G1 X127.008 Y124.863 E11.89183
G1 X126.799 Y125.741 E11.92185
G1 X126.513 Y126.598 E11.9519
G1 X126.152 Y127.426 E11.98194
G1 X125.72 Y128.218 E12.01195
G1 X125.219 Y128.97 E12.042
G1 X124.653 Y129.674 E12.07205
G1 X124.028 Y130.325 E12.10206
G1 X123.347 Y130.919 E12.13212
G1 X122.616 Y131.45 E12.16217
G1 X121.842 Y131.914 E12.19219
G1 X121.029 Y132.308 E12.22223
G1 X120.185 Y132.628 E12.25226
G1 X119.315 Y132.873 E12.28232
G1 X118.428 Y133.039 E12.31233
G1 X117.277 Y133.137 E12.35075
G1 X116.956 Y133.146 E12.36143
G1 X116.67 Y133.15 E12.37095
G1 X104.564 Y133.149 E12.77359
G1 X103.908 Y133.14 E12.79541
G1 X102.706 Y133.052 E12.8355
G1 X102.382 Y133.009 E12.84637
G1 X101.493 Y132.851 E12.8764
G1 X100.621 Y132.615 E12.90645
G1 X100.085 Y132.427 E12.92534
G1 X99.941 Y132.372 E12.93047
G1 X99.112 Y132.012 E12.96053
G1 X98.318 Y131.581 E12.99058
G1 X97.566 Y131.082 E13.02059
G1 X96.861 Y130.517 E13.05064
G1 X96.209 Y129.893 E13.08066
G1 X95.614 Y129.213 E13.11071
G1 X95.082 Y128.484 E13.14073
G1 X94.616 Y127.71 E13.17078
G1 X94.221 Y126.898 E13.20081
G1 X93.899 Y126.054 E13.23086
G1 X93.653 Y125.185 E13.2609
G1 X93.484 Y124.298 E13.29093
G1 X93.381 Y123.01 E13.3339
G1 X93.367 Y122.153 E13.36241
G1 X93.366 Y121.165 E13.39527
G1 X93.373 Y119.213 E13.4602
G1 X93.373 Y100.75 E14.07428
G1 X93.367 Y97.708 E14.17546
G1 X93.377 Y97.012 E14.19861
G1 X93.43 Y96.111 E14.22863
G1 X93.562 Y95.218 E14.25865
G1 X93.773 Y94.339 E14.28872
G1 X94.061 Y93.483 E14.31876
G1 X94.424 Y92.656 E14.34879
G1 X94.858 Y91.864 E14.37883
G1 X95.36 Y91.114 E14.40885
G1 X95.927 Y90.411 E14.43889
G1 X96.554 Y89.761 E14.46893
G1 F2700 E9.46893
;MESH:MotorHolder.stl
G0 F6000 X102.903 Y98.707
G0 X103.987 Y98.703
G0 X104.348 Y97.832
G0 X116.218 Y97.832
G0 X116.218 Y102.718
G0 X106.208 Y102.936
G0 X106.572 Y116.918
G0 X116.218 Y117.272
G0 X116.4 Y122.35
;TYPE:WALL-INNER
G1 F2700 E14.46893
G1 F1200 X104.167 Y122.35 E14.8758
G1 X104.166 Y121.299 E14.91075
G1 X104.173 Y119.251 E14.97887
G1 X104.173 Y100.749 E15.59425
G1 X104.166 Y97.849 E15.69071
G1 X104.166 Y97.65 E15.69732
G1 X104.365 Y97.65 E15.70161
G1 X116.4 Y97.65 E16.10189
G1 X116.4 Y102.9 E16.27651
G1 X106.4 Y102.9 E16.60911
G1 X106.4 Y117.09 E17.08107
G1 X116.4 Y117.09 E17.41367
G1 X116.4 Y122.35 E17.58862
G0 F6000 X116.8 Y122.75
;TYPE:WALL-OUTER
G1 F1200 X104.014 Y122.75 E18.01388
G1 X103.767 Y122.713 E18.02219
G1 X103.766 Y121.298 E18.06925
G1 X103.773 Y119.25 E18.13737
G1 X103.773 Y100.75 E18.75268
G1 X103.767 Y98.703 E18.82077
G1 X103.766 Y97.294 E18.86763
G1 X104.009 Y97.25 E18.87585
G1 X116.8 Y97.25 E19.30128
G1 X116.8 Y103.3 E19.5025
G1 X106.8 Y103.3 E19.8351
G1 X106.8 Y116.69 E20.28045
G1 X116.8 Y116.69 E20.61306
G1 X116.8 Y122.75 E20.81461
G0 F6000 X116.53 Y122.48
G0 X116.29 Y121.96
G0 X116.01 Y121.96
;TYPE:SKIN
G1 F1200 X104.557 Y121.96 E21.19554
G1 X104.556 Y121.299 E21.21752
G1 X104.563 Y119.251 E21.28564
G1 X104.563 Y100.749 E21.90102
G1 X104.556 Y98.04 E21.99112
G1 X116.01 Y98.04 E22.37208
G1 X116.01 Y102.51 E22.52076
G1 X106.01 Y102.51 E22.85336
G1 X106.01 Y117.48 E23.35126
G1 X116.01 Y117.48 E23.68386
G1 X116.01 Y121.96 E23.83287
G0 F6000 X116.29 Y121.96
G0 X104.828 Y122.24
G0 X104.828 Y121.799
G1 F1200 X104.716 Y121.686 E23.83816
G0 F6000 X104.716 Y121.121
G1 F1200 X105.394 Y121.799 E23.87005
G0 F6000 X105.959 Y121.799
G1 F1200 X104.718 Y120.557 E23.92845
G0 F6000 X104.72 Y119.993
G1 F1200 X106.525 Y121.799 E24.01337
G0 F6000 X107.091 Y121.799
G1 F1200 X104.722 Y119.43 E24.1248
G0 F6000 X104.722 Y118.864
G1 F1200 X107.657 Y121.799 E24.26286
G0 F6000 X108.222 Y121.799
G1 F1200 X104.722 Y118.298 E24.42751
G0 F6000 X104.722 Y117.733
G1 F1200 X108.788 Y121.799 E24.61876
G0 F6000 X109.354 Y121.799
G1 F1200 X104.722 Y117.167 E24.83664
G0 F6000 X104.722 Y116.601
G1 F1200 X109.919 Y121.799 E25.08111
G0 F6000 X110.485 Y121.799
G1 F1200 X106.325 Y117.639 E25.27679
G0 F6000 X106.891 Y117.639
G1 F1200 X111.051 Y121.799 E25.47246
G0 F6000 X111.616 Y121.799
G1 F1200 X107.456 Y117.639 E25.66813
G0 F6000 X108.022 Y117.639
G1 F1200 X112.182 Y121.799 E25.86381
G0 F6000 X112.748 Y121.799
G1 F1200 X108.588 Y117.639 E26.05948
G0 F6000 X109.153 Y117.639
G1 F1200 X113.313 Y121.799 E26.25515
G0 F6000 X113.879 Y121.799
G1 F1200 X109.719 Y117.639 E26.45083
G0 F6000 X110.285 Y117.639
G1 F1200 X114.445 Y121.799 E26.6465
G0 F6000 X115.01 Y121.799
G1 F1200 X110.851 Y117.639 E26.84215
G0 F6000 X111.416 Y117.639
G1 F1200 X115.576 Y121.799 E27.03783
G0 F6000 X115.85 Y121.507
G1 F1200 X111.982 Y117.639 E27.21976
G0 F6000 X112.548 Y117.639
G1 F1200 X115.85 Y120.941 E27.37508
G0 F6000 X115.85 Y120.375
G1 F1200 X113.113 Y117.639 E27.5038
G0 F6000 X113.679 Y117.639
G1 F1200 X115.85 Y119.81 E27.60591
G0 F6000 X115.85 Y119.244
G1 F1200 X114.245 Y117.639 E27.68141
G0 F6000 X114.81 Y117.639
G1 F1200 X115.85 Y118.678 E27.7303
G0 F6000 X115.85 Y118.112
G1 F1200 X115.376 Y117.639 E27.75258
G0 F6000 X115.376 Y117.2
G0 X106.29 Y117.164
G0 X105.85 Y117.164
G1 F1200 X104.722 Y116.036 E27.80563
G0 F6000 X104.722 Y115.47
G1 F1200 X105.85 Y116.598 E27.85869
G0 F6000 X105.85 Y116.032
G1 F1200 X104.722 Y114.904 E27.91175
G0 F6000 X104.722 Y114.339
G1 F1200 X105.85 Y115.467 E27.96481
G0 F6000 X105.85 Y114.901
G1 F1200 X104.722 Y113.773 E28.01786
G0 F6000 X104.722 Y113.207
G1 F1200 X105.85 Y114.335 E28.07092
G0 F6000 X105.85 Y113.769
G1 F1200 X104.722 Y112.642 E28.12396
G0 F6000 X104.722 Y112.076
G1 F1200 X105.85 Y113.204 E28.17701
G0 F6000 X105.85 Y112.638
G1 F1200 X104.722 Y111.51 E28.23007
G0 F6000 X104.722 Y110.945
G1 F1200 X105.85 Y112.072 E28.2831
G0 F6000 X105.85 Y111.507
G1 F1200 X104.722 Y110.379 E28.33616
G0 F6000 X104.722 Y109.813
G1 F1200 X105.85 Y110.941 E28.38922
G0 F6000 X105.85 Y110.375
G1 F1200 X104.722 Y109.247 E28.44228
G0 F6000 X104.722 Y108.682
G1 F1200 X105.849 Y109.809 E28.49529
G0 F6000 X105.849 Y109.243
G1 F1200 X104.722 Y108.116 E28.5483
G0 F6000 X104.722 Y107.55
G1 F1200 X105.849 Y108.678 E28.60133
G0 F6000 X105.849 Y108.112
G1 F1200 X104.722 Y106.985 E28.65434
G0 F6000 X104.722 Y106.419
G1 F1200 X105.849 Y107.546 E28.70735
G0 F6000 X105.849 Y106.981
G1 F1200 X104.722 Y105.853 E28.76039
G0 F6000 X104.722 Y105.288
G1 F1200 X105.849 Y106.415 E28.8134
G0 F6000 X105.849 Y105.849
G1 F1200 X104.722 Y104.722 E28.86641
G0 F6000 X104.722 Y104.156
G1 F1200 X105.849 Y105.283 E28.91942
G0 F6000 X105.849 Y104.718
G1 F1200 X104.722 Y103.591 E28.97243
G0 F6000 X104.722 Y103.025
G1 F1200 X105.849 Y104.152 E29.02544
G0 F6000 X105.849 Y103.586
G1 F1200 X104.722 Y102.459 E29.07845
G0 F6000 X104.722 Y101.894
G1 F1200 X105.849 Y103.021 E29.13146
G0 F6000 X105.849 Y102.455
G1 F1200 X104.722 Y101.328 E29.18447
G0 F6000 X104.722 Y100.762
G1 F1200 X106.309 Y102.35 E29.25914
G0 F6000 X106.875 Y102.35
G1 F1200 X104.721 Y100.195 E29.36049
G0 F6000 X104.719 Y99.628
G1 F1200 X107.441 Y102.35 E29.48852
G0 F6000 X108.007 Y102.35
G1 F1200 X104.718 Y99.061 E29.64322
G0 F6000 X104.716 Y98.494
G1 F1200 X108.572 Y102.35 E29.8246
G0 F6000 X109.138 Y102.35
G1 F1200 X104.988 Y98.2 E30.0198
G0 F6000 X105.554 Y98.2
G1 F1200 X109.704 Y102.35 E30.21501
