;FLAVOR:Marlin
;TIME:6112
;Filament used: 6.14578m
;Layer height: 0.28
;MINX:44.75
;MINY:54.75
;MINZ:0.28
;MAXX:175.25
;MAXY:165.25
;MAXZ:2.8
;Generated with Creality Slicer 4.8.2-218
M140 S60
M105
M190 S60
M104 S230
M105
M109 S230
M82 ;absolute extrusion mode

G28 ;Home

G92 E0 ;Reset Extruder
G1 Z2.0 F3000 ;Move Z Axis up
G1 X10.1 Y20 Z0.28 F5000.0 ;Move to start position
G1 X10.1 Y200.0 Z0.28 F1500.0 E15 ;Draw the first line
G1 X10.4 Y200.0 Z0.28 F5000.0 ;Move to side a little
G1 X10.4 Y20 Z0.28 F1500.0 E30 ;Draw the second line
G92 E0 ;Reset Extruder
G1 Z2.0 F3000 ;Move Z Axis up

G92 E0
G92 E0
G1 F2700 E-5
;LAYER_COUNT:10
;LAYER:0
M107
G0 F6000 X48.632 Y57.38 Z0.28
;TYPE:SKIRT
G1 F2700 E0
G1 F1200 X49.371 Y56.804 E0.04363
G1 X50.157 Y56.292 E0.08731
G1 X50.984 Y55.849 E0.13099
G1 X51.846 Y55.479 E0.17467
G1 X52.736 Y55.183 E0.21835
G1 X53.648 Y54.964 E0.26202
G1 X54.575 Y54.823 E0.30568
G1 X55.451 Y54.763 E0.34657
G1 X55.772 Y54.754 E0.36152
G1 X56.08 Y54.75 E0.37586
G1 X125.099 Y54.751 E3.58968
G1 X126.759 Y54.778 E3.66699
G1 X128.085 Y54.821 E3.72876
G1 X128.548 Y54.843 E3.75035
G1 X128.896 Y54.865 E3.76658
G1 X130.093 Y54.96 E3.82249
G1 X131.125 Y55.061 E3.87078
G1 X131.801 Y55.136 E3.90245
G1 X132.161 Y55.182 E3.91935
G1 X133.467 Y55.374 E3.98081
G1 X134.526 Y55.551 E4.03081
G1 X134.966 Y55.63 E4.05163
G1 X135.325 Y55.701 E4.06867
G1 X136.692 Y55.995 E4.13378
G1 X137.626 Y56.214 E4.17845
G1 X138.166 Y56.348 E4.20435
G1 X138.507 Y56.438 E4.22078
G1 X139.587 Y56.743 E4.27303
G1 X140.671 Y57.071 E4.32577
G1 X141.242 Y57.252 E4.35366
G1 X141.57 Y57.362 E4.36977
G1 X142.686 Y57.758 E4.42491
G1 X143.723 Y58.147 E4.47648
G1 X144.295 Y58.371 E4.50509
G1 X144.623 Y58.506 E4.5216
G1 X145.859 Y59.04 E4.5843
G1 X146.827 Y59.479 E4.63379
G1 X147.238 Y59.672 E4.65493
G1 X147.568 Y59.834 E4.67205
G1 X148.605 Y60.364 E4.72628
G1 X148.783 Y60.457 E4.73563
G1 X149.685 Y60.94 E4.78327
G1 X150.109 Y61.174 E4.80582
G1 X150.436 Y61.362 E4.82339
G1 X151.457 Y61.972 E4.87877
G1 X152.334 Y62.516 E4.92682
G1 X152.881 Y62.864 E4.95701
G1 X153.196 Y63.074 E4.97464
G1 X154.118 Y63.709 E5.02677
G1 X154.29 Y63.83 E5.03656
G1 X155.179 Y64.469 E5.08754
G1 X155.535 Y64.732 E5.10815
G1 X155.818 Y64.947 E5.1247
G1 X156.713 Y65.654 E5.17781
G1 X157.646 Y66.419 E5.23399
G1 X158.07 Y66.777 E5.25983
G1 X158.342 Y67.015 E5.27666
G1 X159.317 Y67.896 E5.33785
G1 X159.968 Y68.505 E5.37936
G1 X160.459 Y68.978 E5.4111
G1 X160.705 Y69.223 E5.42727
G1 X161.611 Y70.156 E5.48783
G1 X162.275 Y70.865 E5.53306
G1 X162.677 Y71.307 E5.56088
G1 X162.897 Y71.557 E5.57639
G1 X163.66 Y72.452 E5.63115
G1 X163.792 Y72.61 E5.64074
G1 X164.421 Y73.378 E5.68696
G1 X164.771 Y73.817 E5.7131
G1 X164.993 Y74.105 E5.73004
G1 X165.637 Y74.97 E5.78025
G1 X165.754 Y75.13 E5.78948
G1 X166.393 Y76.023 E5.84061
G1 X166.666 Y76.417 E5.86293
G1 X166.853 Y76.696 E5.87857
G1 X167.488 Y77.675 E5.93291
G1 X167.599 Y77.85 E5.94256
G1 X168.142 Y78.725 E5.99051
G1 X168.403 Y79.159 E6.01409
G1 X168.576 Y79.458 E6.03018
G1 X169.122 Y80.434 E6.08225
G1 X169.223 Y80.618 E6.09202
G1 X169.704 Y81.521 E6.13967
G1 X169.939 Y81.976 E6.16351
G1 X170.1 Y82.299 E6.18032
G1 X170.608 Y83.367 E6.23539
G1 X171.057 Y84.354 E6.28588
G1 X171.309 Y84.932 E6.31524
G1 X171.439 Y85.243 E6.33093
G1 X171.865 Y86.313 E6.38456
G1 X171.941 Y86.509 E6.39435
G1 X172.26 Y87.357 E6.43654
G1 X172.468 Y87.932 E6.46501
G1 X172.589 Y88.286 E6.48243
G1 X172.994 Y89.543 E6.54392
G1 X173.291 Y90.523 E6.59161
G1 X173.435 Y91.022 E6.61579
G1 X173.532 Y91.38 E6.63306
G1 X173.823 Y92.533 E6.68843
G1 X174.061 Y93.549 E6.73702
G1 X174.202 Y94.19 E6.76758
G1 X174.273 Y94.539 E6.78417
G1 X174.476 Y95.64 E6.8363
G1 X174.659 Y96.735 E6.88799
G1 X174.756 Y97.369 E6.91786
G1 X174.804 Y97.732 E6.93491
G1 X174.958 Y99.061 E6.99721
G1 X175.06 Y100.108 E7.04619
G1 X175.1 Y100.577 E7.06811
G1 X175.126 Y100.948 E7.08543
G1 X175.183 Y102.059 E7.13723
G1 X175.217 Y103.061 E7.18391
G1 X175.248 Y104.872 E7.26825
G1 X175.25 Y105.054 E7.27673
G1 X175.249 Y153.665 E9.54026
G1 X175.239 Y154.392 E9.57411
G1 X175.186 Y155.329 E9.61781
G1 X175.054 Y156.257 E9.66146
G1 X174.843 Y157.171 E9.70514
G1 X174.554 Y158.063 E9.7488
G1 X174.191 Y158.928 E9.79248
G1 X173.756 Y159.759 E9.83616
G1 X173.251 Y160.549 E9.87982
G1 X172.681 Y161.294 E9.9235
G1 X172.05 Y161.988 E9.96717
G1 X171.361 Y162.625 E10.01087
G1 X170.621 Y163.201 E10.05453
G1 X169.835 Y163.712 E10.09819
G1 X169.008 Y164.154 E10.14185
G1 X168.146 Y164.524 E10.18553
G1 X167.256 Y164.819 E10.22919
G1 X166.344 Y165.038 E10.27286
G1 X165.417 Y165.178 E10.31652
G1 X164.549 Y165.237 E10.35703
G1 X164.229 Y165.246 E10.37193
G1 X163.92 Y165.25 E10.38632
G1 X115.3 Y165.249 E12.65027
G1 X114.598 Y165.239 E12.68297
G1 X113.662 Y165.186 E12.72662
G1 X112.734 Y165.053 E12.77027
G1 X111.82 Y164.841 E12.81396
G1 X110.927 Y164.553 E12.85765
G1 X110.063 Y164.189 E12.90131
G1 X109.232 Y163.753 E12.94501
G1 X108.442 Y163.248 E12.98867
G1 X107.698 Y162.678 E13.03231
G1 X107.005 Y162.046 E13.07598
G1 X106.368 Y161.357 E13.11967
G1 X105.792 Y160.617 E13.16334
G1 X105.281 Y159.83 E13.20703
G1 X105.009 Y159.341 E13.23309
G1 X104.522 Y158.411 E13.28197
G1 X103.298 Y156.149 E13.40173
G1 X102.023 Y153.943 E13.52037
G1 X100.707 Y151.81 E13.63708
G1 X99.347 Y149.735 E13.7526
G1 X97.882 Y147.637 E13.87175
G1 X96.393 Y145.625 E13.98831
G1 X94.854 Y143.666 E14.10431
G1 X93.213 Y141.694 E14.22377
G1 X91.558 Y139.816 E14.34033
G1 X89.861 Y137.996 E14.4562
G1 X88.095 Y136.205 E14.57332
G1 X86.261 Y134.45 E14.69152
G1 X84.379 Y132.747 E14.8097
G1 X82.497 Y131.14 E14.92494
G1 X80.507 Y129.533 E15.04404
G1 X78.525 Y128.026 E15.15998
G1 X76.475 Y126.554 E15.2775
G1 X74.385 Y125.143 E15.39492
G1 X72.287 Y123.812 E15.51061
G1 X70.082 Y122.498 E15.63013
G1 X67.917 Y121.289 E15.7456
G1 X65.668 Y120.116 E15.86371
G1 X63.4 Y119.013 E15.98114
G1 X61.116 Y117.981 E16.09785
G1 X58.755 Y116.993 E16.21702
G1 X56.44 Y116.104 E16.33249
G1 X54.075 Y115.269 E16.44928
G1 X53.102 Y114.955 E16.49689
G1 X52.238 Y114.663 E16.53936
G1 X51.363 Y114.325 E16.58303
G1 X50.52 Y113.914 E16.6267
G1 X49.715 Y113.432 E16.67039
G1 X48.955 Y112.884 E16.71402
G1 X48.243 Y112.273 E16.75771
G1 X47.586 Y111.603 E16.80141
G1 X46.989 Y110.88 E16.84507
G1 X46.455 Y110.109 E16.88874
G1 X45.989 Y109.295 E16.93241
G1 X45.594 Y108.445 E16.97606
G1 X45.273 Y107.563 E17.01976
G1 X45.029 Y106.658 E17.06341
G1 X44.862 Y105.735 E17.10708
G1 X44.765 Y104.583 E17.16091
G1 X44.755 Y104.261 E17.17592
G1 X44.75 Y103.92 E17.1918
G1 X44.751 Y66.304 E18.94335
G1 X44.76 Y65.615 E18.97544
G1 X44.812 Y64.679 E19.01909
G1 X44.944 Y63.75 E19.06278
G1 X45.154 Y62.836 E19.10645
G1 X45.442 Y61.944 E19.1501
G1 X45.804 Y61.079 E19.19376
G1 X46.239 Y60.248 E19.23744
G1 X46.743 Y59.457 E19.28111
G1 X47.313 Y58.712 E19.32479
G1 X47.944 Y58.018 E19.36847
G1 X48.632 Y57.38 E19.41216
G0 F6000 X49.021 Y57.577
G1 F1200 X49.756 Y57.023 E19.45501
G1 X50.537 Y56.535 E19.4979
G1 X51.357 Y56.116 E19.54078
G1 X52.21 Y55.771 E19.58362
G1 X53.09 Y55.5 E19.6265
G1 X53.99 Y55.308 E19.66935
G1 X54.904 Y55.194 E19.71224
G1 X55.462 Y55.163 E19.73826
G1 X55.783 Y55.154 E19.75321
G1 X56.08 Y55.15 E19.76704
G1 X125.092 Y55.151 E22.98053
G1 X126.752 Y55.178 E23.05784
G1 X128.066 Y55.221 E23.11906
G1 X128.529 Y55.243 E23.14064
G1 X128.865 Y55.264 E23.15631
G1 X130.062 Y55.359 E23.21223
G1 X131.086 Y55.459 E23.26014
G1 X131.756 Y55.533 E23.29152
G1 X132.104 Y55.578 E23.30786
G1 X133.195 Y55.737 E23.3592
G1 X133.401 Y55.769 E23.36891
G1 X134.455 Y55.945 E23.41867
G1 X134.895 Y56.024 E23.43948
G1 X135.241 Y56.092 E23.4559
G1 X136.418 Y56.344 E23.51195
G1 X137.379 Y56.566 E23.55788
G1 X138.07 Y56.736 E23.59101
G1 X138.398 Y56.823 E23.60681
G1 X139.478 Y57.128 E23.65907
G1 X139.68 Y57.187 E23.66887
G1 X140.701 Y57.499 E23.71858
G1 X141.12 Y57.633 E23.73906
G1 X141.436 Y57.739 E23.75458
G1 X142.552 Y58.135 E23.80972
G1 X142.743 Y58.205 E23.8192
G1 X143.726 Y58.577 E23.86814
G1 X144.148 Y58.743 E23.88925
G1 X144.465 Y58.873 E23.90521
G1 X145.525 Y59.33 E23.95896
G1 X146.517 Y59.777 E24.00962
G1 X147.068 Y60.034 E24.03793
G1 X147.386 Y60.19 E24.05443
G1 X148.423 Y60.72 E24.10865
G1 X149.366 Y61.222 E24.1584
G1 X149.916 Y61.525 E24.18764
G1 X150.231 Y61.705 E24.20453
G1 X151.252 Y62.315 E24.25991
G1 X152.23 Y62.923 E24.31353
G1 X152.665 Y63.201 E24.33757
G1 X152.969 Y63.403 E24.35457
G1 X153.891 Y64.038 E24.4067
G1 X154.821 Y64.703 E24.45993
G1 X154.942 Y64.79 E24.46687
G1 X155.298 Y65.053 E24.48748
G1 X155.57 Y65.261 E24.50343
G1 X156.465 Y65.968 E24.55654
G1 X157.272 Y66.628 E24.60508
G1 X157.812 Y67.083 E24.63796
G1 X158.074 Y67.312 E24.65416
G1 X159.043 Y68.188 E24.71499
G1 X159.813 Y68.909 E24.76411
G1 X160.182 Y69.265 E24.78798
G1 X160.419 Y69.501 E24.80356
G1 X161.179 Y70.282 E24.8543
G1 X161.983 Y71.138 E24.90899
G1 X162.381 Y71.575 E24.93651
G1 X162.593 Y71.816 E24.95145
G1 X163.356 Y72.711 E25.00622
G1 X164.014 Y73.51 E25.05442
G1 X164.458 Y74.066 E25.08755
G1 X164.672 Y74.344 E25.10388
G1 X165.429 Y75.363 E25.16299
G1 X166.064 Y76.251 E25.21383
G1 X166.337 Y76.645 E25.23615
G1 X166.517 Y76.914 E25.25122
G1 X167.152 Y77.893 E25.30555
G1 X167.715 Y78.795 E25.35506
G1 X167.799 Y78.931 E25.36251
G1 X168.06 Y79.365 E25.38609
G1 X168.227 Y79.653 E25.40159
G1 X168.773 Y80.629 E25.45367
G1 X168.87 Y80.806 E25.46306
G1 X169.349 Y81.705 E25.5105
G1 X169.584 Y82.16 E25.53434
G1 X169.738 Y82.471 E25.5505
G1 X170.246 Y83.539 E25.60557
G1 X170.692 Y84.519 E25.65571
G1 X170.762 Y84.674 E25.66363
G1 X170.943 Y85.091 E25.68479
G1 X171.067 Y85.391 E25.69991
G1 X171.493 Y86.461 E25.75354
G1 X171.566 Y86.65 E25.76297
G1 X171.933 Y87.628 E25.81161
G1 X172.092 Y88.068 E25.8334
G1 X172.209 Y88.409 E25.85018
G1 X172.612 Y89.66 E25.91138
G1 X172.865 Y90.493 E25.95192
G1 X173.05 Y91.133 E25.98294
G1 X173.144 Y91.478 E25.99959
G1 X173.435 Y92.631 E26.05496
G1 X173.672 Y93.64 E26.10323
G1 X173.812 Y94.275 E26.1335
G1 X173.879 Y94.612 E26.1495
G1 X174.082 Y95.713 E26.20164
G1 X174.264 Y96.801 E26.253
G1 X174.36 Y97.429 E26.28258
G1 X174.407 Y97.779 E26.29903
G1 X174.56 Y99.1 E26.36095
G1 X174.662 Y100.142 E26.4097
G1 X174.702 Y100.611 E26.43162
G1 X174.726 Y100.969 E26.44833
G1 X174.783 Y102.08 E26.50013
G1 X174.817 Y103.074 E26.54644
G1 X174.822 Y103.245 E26.55441
G1 X174.849 Y104.879 E26.6305
G1 X174.85 Y153.514 E28.89515
G1 X174.839 Y154.387 E28.9358
G1 X174.786 Y155.306 E28.97867
G1 X174.654 Y156.217 E29.02153
G1 X174.443 Y157.113 E29.06439
G1 X174.156 Y157.988 E29.10727
G1 X173.793 Y158.834 E29.15014
G1 X173.359 Y159.646 E29.19301
G1 X172.855 Y160.417 E29.2359
G1 X172.287 Y161.141 E29.27875
G1 X171.658 Y161.813 E29.32161
G1 X170.973 Y162.428 E29.36448
G1 X170.237 Y162.981 E29.40734
G1 X169.456 Y163.469 E29.45023
G1 X168.636 Y163.887 E29.49308
G1 X167.782 Y164.232 E29.53597
G1 X166.902 Y164.501 E29.57882
G1 X166.001 Y164.694 E29.62173
G1 X165.088 Y164.807 E29.66456
G1 X164.538 Y164.837 E29.69021
G1 X164.218 Y164.846 E29.70512
G1 X163.92 Y164.85 E29.719
G1 X115.306 Y164.849 E31.98267
G1 X114.604 Y164.839 E32.01536
G1 X113.685 Y164.786 E32.05822
G1 X112.774 Y164.653 E32.10109
G1 X111.878 Y164.442 E32.14396
G1 X111.003 Y164.154 E32.18685
G1 X110.157 Y163.791 E32.22972
G1 X109.346 Y163.356 E32.27257
G1 X108.575 Y162.852 E32.31546
G1 X107.851 Y162.284 E32.35831
G1 X107.179 Y161.654 E32.4012
G1 X106.565 Y160.969 E32.44403
G1 X106.012 Y160.233 E32.4869
G1 X105.364 Y159.155 E32.54547
G1 X104.917 Y158.3 E32.59039
G1 X103.645 Y155.949 E32.71486
G1 X102.375 Y153.754 E32.83295
G1 X101.049 Y151.602 E32.95065
G1 X99.666 Y149.493 E33.06808
G1 X98.216 Y147.416 E33.18603
G1 X96.713 Y145.386 E33.30365
G1 X95.143 Y143.387 E33.42201
G1 X93.537 Y141.457 E33.53892
G1 X91.867 Y139.562 E33.65653
G1 X90.12 Y137.689 E33.7758
G1 X88.374 Y135.918 E33.8916
G1 X86.524 Y134.147 E34.01085
G1 X84.662 Y132.463 E34.12775
G1 X82.763 Y130.841 E34.24405
G1 X80.755 Y129.219 E34.36424
G1 X78.755 Y127.698 E34.48124
G1 X76.686 Y126.214 E34.5998
G1 X74.642 Y124.833 E34.71466
G1 X72.458 Y123.448 E34.83509
G1 X70.303 Y122.164 E34.95189
G1 X68.091 Y120.928 E35.06988
G1 X65.849 Y119.759 E35.18762
G1 X63.561 Y118.646 E35.30609
G1 X61.299 Y117.625 E35.42165
G1 X58.915 Y116.627 E35.542
G1 X56.568 Y115.725 E35.65908
G1 X54.184 Y114.883 E35.77681
G1 X53.23 Y114.576 E35.82347
G1 X52.366 Y114.284 E35.86594
G1 X51.508 Y113.952 E35.90878
G1 X50.681 Y113.546 E35.95168
G1 X49.893 Y113.07 E35.99454
G1 X49.149 Y112.528 E36.03741
G1 X48.455 Y111.923 E36.08028
G1 X47.816 Y111.26 E36.12315
G1 X47.237 Y110.544 E36.16603
G1 X46.722 Y109.781 E36.20889
G1 X46.276 Y108.976 E36.25175
G1 X45.901 Y108.135 E36.29462
G1 X45.6 Y107.265 E36.33749
G1 X45.376 Y106.372 E36.38036
G1 X45.231 Y105.463 E36.42322
G1 X45.165 Y104.571 E36.46487
G1 X45.155 Y104.249 E36.47987
G1 X45.15 Y103.92 E36.49519
G1 X45.151 Y66.31 E38.24647
G1 X45.16 Y65.621 E38.27856
G1 X45.212 Y64.701 E38.32147
G1 X45.343 Y63.79 E38.36432
G1 X45.554 Y62.894 E38.40719
G1 X45.841 Y62.019 E38.45006
G1 X46.203 Y61.173 E38.49291
G1 X46.637 Y60.361 E38.53578
G1 X47.139 Y59.589 E38.57866
G1 X47.707 Y58.865 E38.62151
G1 X48.336 Y58.192 E38.66441
G1 X49.021 Y57.577 E38.70727
G0 F6000 X49.409 Y57.777
G1 F1200 X50.14 Y57.247 E38.74932
G1 X50.914 Y56.783 E38.79134
G1 X51.727 Y56.39 E38.83338
G1 X52.572 Y56.07 E38.87546
G1 X53.442 Y55.826 E38.91753
G1 X54.329 Y55.66 E38.95955
G1 X55.473 Y55.563 E39.01301
G1 X55.794 Y55.554 E39.02797
G1 X56.08 Y55.55 E39.04128
G1 X125.086 Y55.551 E42.25449
G1 X126.912 Y55.582 E42.33953
G1 X128.047 Y55.62 E42.39241
G1 X128.51 Y55.642 E42.41399
G1 X128.833 Y55.663 E42.42907
G1 X130.03 Y55.758 E42.48498
G1 X131.046 Y55.857 E42.53251
G1 X131.712 Y55.931 E42.56372
G1 X132.046 Y55.974 E42.5794
G1 X133.137 Y56.133 E42.63073
G1 X133.336 Y56.164 E42.64011
G1 X134.385 Y56.339 E42.68963
G1 X134.825 Y56.418 E42.71045
G1 X135.157 Y56.483 E42.7262
G1 X136.51 Y56.774 E42.79064
G1 X137.434 Y56.99 E42.83483
G1 X137.974 Y57.124 E42.86074
G1 X138.289 Y57.208 E42.87592
G1 X139.369 Y57.513 E42.92817
G1 X139.564 Y57.57 E42.93763
G1 X140.579 Y57.88 E42.98705
G1 X140.998 Y58.014 E43.00753
G1 X141.302 Y58.116 E43.02247
G1 X142.418 Y58.512 E43.07761
G1 X143.441 Y58.896 E43.12849
G1 X144.002 Y59.115 E43.15653
G1 X144.306 Y59.24 E43.17183
G1 X145.529 Y59.769 E43.23388
G1 X146.487 Y60.203 E43.28285
G1 X146.898 Y60.396 E43.304
G1 X147.204 Y60.546 E43.31987
G1 X148.241 Y61.076 E43.37409
G1 X149.177 Y61.575 E43.42348
G1 X149.723 Y61.875 E43.45249
G1 X150.025 Y62.049 E43.46872
G1 X151.204 Y62.755 E43.53271
G1 X152.015 Y63.26 E43.5772
G1 X152.45 Y63.538 E43.60124
G1 X152.743 Y63.733 E43.61763
G1 X153.665 Y64.368 E43.66975
G1 X154.588 Y65.028 E43.72259
G1 X155.06 Y65.375 E43.74987
G1 X155.322 Y65.575 E43.76522
G1 X156.217 Y66.282 E43.81833
G1 X157.018 Y66.937 E43.86651
G1 X157.554 Y67.388 E43.89913
G1 X157.807 Y67.609 E43.91477
G1 X158.77 Y68.48 E43.97523
G1 X159.535 Y69.197 E44.02405
G1 X159.904 Y69.553 E44.04793
G1 X160.132 Y69.78 E44.06291
G1 X160.892 Y70.561 E44.11365
G1 X161.691 Y71.412 E44.16801
G1 X162.084 Y71.844 E44.1952
G1 X162.288 Y72.076 E44.20959
G1 X163.174 Y73.117 E44.27324
G1 X163.795 Y73.876 E44.3189
G1 X164.145 Y74.315 E44.34505
G1 X164.352 Y74.583 E44.36081
G1 X164.996 Y75.448 E44.41103
G1 X165.641 Y76.345 E44.46247
G1 X166.008 Y76.873 E44.49242
G1 X166.182 Y77.131 E44.50691
G1 X166.817 Y78.11 E44.56124
G1 X167.376 Y79.006 E44.61042
G1 X167.717 Y79.571 E44.64115
G1 X167.878 Y79.848 E44.65607
G1 X168.424 Y80.824 E44.70814
G1 X168.926 Y81.76 E44.7576
G1 X169.229 Y82.343 E44.78819
G1 X169.377 Y82.643 E44.80377
G1 X169.885 Y83.711 E44.85884
G1 X169.964 Y83.881 E44.86757
G1 X170.395 Y84.834 E44.91627
G1 X170.576 Y85.251 E44.93744
G1 X170.696 Y85.539 E44.95197
G1 X171.122 Y86.609 E45.00559
G1 X171.511 Y87.639 E45.05686
G1 X171.716 Y88.203 E45.0848
G1 X171.828 Y88.532 E45.10099
G1 X172.229 Y89.776 E45.16185
G1 X172.522 Y90.745 E45.20899
G1 X172.666 Y91.244 E45.23317
G1 X172.756 Y91.576 E45.24919
G1 X173.047 Y92.729 E45.30456
G1 X173.315 Y93.874 E45.35932
G1 X173.421 Y94.36 E45.38248
G1 X173.486 Y94.685 E45.39791
