;FLAVOR:Marlin
;TIME:8179
;Filament used: 5.42352m
;Layer height: 0.2
;MINX:6.5
;MINY:76.25
;MINZ:0.2
;MAXX:213.5
;MAXY:143.75
;MAXZ:5
;Generated with Creality Slicer 4.8.2-218
M140 S60
M105
M190 S60
M104 S220
M105
M109 S220
M82 ;absolute extrusion mode

G28 ;Home

G92 E0 ;Reset Extruder
G1 Z2.0 F3000 ;Move Z Axis up
G1 X10.1 Y20 Z0.28 F5000.0 ;Move to start position
G1 X10.1 Y200.0 Z0.28 F1500.0 E15 ;Draw the first line
G1 X10.4 Y200.0 Z0.28 F5000.0 ;Move to side a little
G1 X10.4 Y20 Z0.28 F1500.0 E30 ;Draw the second line
G92 E0 ;Reset Extruder
G1 Z2.0 F3000 ;Move Z Axis up

G92 E0
G92 E0
G1 F2700 E-5
;LAYER_COUNT:25
;LAYER:0
M107
G0 F6000 X15.403 Y76.463 Z0.2
;TYPE:SKIRT
G1 F2700 E0
G1 F1200 X16.33 Y76.322 E0.03119
G1 X17.201 Y76.263 E0.06022
G1 X17.522 Y76.254 E0.0709
G1 X17.83 Y76.25 E0.08115
G1 X201.793 Y76.25 E6.19978
G1 X202.649 Y76.261 E6.22826
G1 X203.585 Y76.315 E6.25944
G1 X204.513 Y76.447 E6.29062
G1 X205.427 Y76.659 E6.32182
G1 X206.319 Y76.948 E6.35301
G1 X207.184 Y77.311 E6.38421
G1 X208.014 Y77.747 E6.41539
G1 X208.805 Y78.252 E6.44661
G1 X209.549 Y78.823 E6.4778
G1 X210.242 Y79.455 E6.50899
G1 X210.879 Y80.143 E6.54018
G1 X211.454 Y80.884 E6.57137
G1 X211.965 Y81.67 E6.60256
G1 X212.407 Y82.498 E6.63377
G1 X212.776 Y83.36 E6.66496
G1 X213.071 Y84.25 E6.69614
G1 X213.289 Y85.162 E6.72733
G1 X213.429 Y86.09 E6.75855
G1 X213.487 Y86.951 E6.78725
G1 X213.496 Y87.271 E6.7979
G1 X213.5 Y87.58 E6.80817
G1 X213.499 Y92.96 E6.98711
G1 X213.488 Y93.71 E7.01206
G1 X213.488 Y96.352 E7.09994
G1 X213.497 Y96.784 E7.11431
G1 X213.5 Y97.18 E7.12748
G1 X213.499 Y122.96 E7.98492
G1 X213.488 Y123.71 E8.00987
G1 X213.488 Y126.352 E8.09775
G1 X213.497 Y126.784 E8.11212
G1 X213.5 Y127.18 E8.12529
G1 X213.499 Y132.15 E8.29059
G1 X213.49 Y132.877 E8.31477
G1 X213.439 Y133.814 E8.34598
G1 X213.307 Y134.742 E8.37716
G1 X213.098 Y135.656 E8.40834
G1 X212.811 Y136.549 E8.43954
G1 X212.449 Y137.415 E8.47076
G1 X212.015 Y138.246 E8.50194
G1 X211.511 Y139.037 E8.53314
G1 X210.942 Y139.782 E8.56432
G1 X210.311 Y140.477 E8.59554
G1 X209.624 Y141.115 E8.62672
G1 X208.885 Y141.692 E8.65791
G1 X208.099 Y142.204 E8.68911
G1 X207.273 Y142.647 E8.72028
G1 X206.411 Y143.019 E8.75151
G1 X205.522 Y143.315 E8.78267
G1 X204.61 Y143.535 E8.81387
G1 X203.683 Y143.676 E8.84506
G1 X202.799 Y143.737 E8.87453
G1 X202.478 Y143.746 E8.88521
G1 X202.17 Y143.75 E8.89546
G1 X176.051 Y143.749 E9.76418
G1 X175.348 Y143.739 E9.78756
G1 X174.411 Y143.686 E9.81878
G1 X173.483 Y143.553 E9.84996
G1 X172.569 Y143.341 E9.88117
G1 X171.677 Y143.053 E9.91234
G1 X170.812 Y142.689 E9.94356
G1 X169.982 Y142.253 E9.97474
G1 X169.191 Y141.748 E10.00595
G1 X168.716 Y141.396 E10.02562
G1 X167.658 Y140.565 E10.07036
G1 X167.356 Y140.322 E10.08325
G1 X165.346 Y138.794 E10.16723
G1 X163.315 Y137.339 E10.25033
G1 X161.206 Y135.916 E10.33495
G1 X159.096 Y134.577 E10.41806
G1 X156.939 Y133.294 E10.50154
G1 X154.724 Y132.059 E10.58589
G1 X152.489 Y130.894 E10.66972
G1 X150.247 Y129.806 E10.7526
G1 X147.942 Y128.766 E10.83671
G1 X145.591 Y127.782 E10.92148
G1 X143.261 Y126.889 E11.00447
G1 X140.903 Y126.058 E11.08762
G1 X138.484 Y125.281 E11.17213
G1 X136.097 Y124.589 E11.25479
G1 X133.642 Y123.951 E11.33916
G1 X131.165 Y123.381 E11.4237
G1 X128.715 Y122.893 E11.50678
G1 X126.246 Y122.471 E11.59009
G1 X123.735 Y122.115 E11.67444
G1 X121.269 Y121.836 E11.75699
G1 X118.73 Y121.621 E11.84174
G1 X116.229 Y121.481 E11.92505
G1 X113.699 Y121.41 E12.00923
G1 X111.176 Y121.412 E12.09315
G1 X108.687 Y121.483 E12.17597
G1 X106.18 Y121.626 E12.25948
G1 X103.632 Y121.845 E12.34454
G1 X101.15 Y122.128 E12.42763
G1 X98.672 Y122.482 E12.51089
G1 X96.183 Y122.909 E12.59488
G1 X93.726 Y123.404 E12.67824
G1 X91.263 Y123.971 E12.7623
G1 X88.829 Y124.606 E12.84597
G1 X86.405 Y125.312 E12.92994
G1 X84.024 Y126.079 E13.01314
G1 X81.635 Y126.924 E13.09742
G1 X79.279 Y127.833 E13.18141
G1 X76.986 Y128.793 E13.26409
G1 X74.656 Y129.847 E13.34915
G1 X72.416 Y130.938 E13.43202
G1 X70.176 Y132.107 E13.51606
G1 X67.97 Y133.341 E13.60013
G1 X65.841 Y134.611 E13.68258
G1 X63.69 Y135.978 E13.76735
G1 X61.599 Y137.391 E13.85129
G1 X59.583 Y138.839 E13.93384
G1 X57.548 Y140.389 E14.01892
G1 X56.354 Y141.341 E14.06972
G1 X55.596 Y141.894 E14.10092
G1 X54.794 Y142.38 E14.13211
G1 X53.954 Y142.796 E14.16329
G1 X53.081 Y143.139 E14.19449
G1 X52.182 Y143.407 E14.22569
G1 X51.264 Y143.597 E14.25687
G1 X50.332 Y143.708 E14.28809
G1 X49.833 Y143.735 E14.30471
G1 X49.507 Y143.745 E14.31555
G1 X49.17 Y143.75 E14.32676
G1 X18.065 Y143.749 E15.36132
G1 X17.367 Y143.74 E15.38454
G1 X16.431 Y143.688 E15.41572
G1 X15.502 Y143.556 E15.44693
G1 X14.588 Y143.346 E15.47812
G1 X13.695 Y143.059 E15.50932
G1 X12.83 Y142.696 E15.54052
G1 X11.999 Y142.262 E15.5717
G1 X11.208 Y141.758 E15.60289
G1 X10.463 Y141.188 E15.63409
G1 X9.769 Y140.557 E15.66529
G1 X9.132 Y139.87 E15.69645
G1 X8.555 Y139.13 E15.72766
G1 X8.043 Y138.344 E15.75886
G1 X7.6 Y137.517 E15.79006
G1 X7.229 Y136.656 E15.82125
G1 X6.933 Y135.766 E15.85244
G1 X6.714 Y134.854 E15.88364
G1 X6.573 Y133.927 E15.91482
G1 X6.513 Y133.038 E15.94446
G1 X6.504 Y132.705 E15.95554
G1 X6.5 Y132.408 E15.96542
G1 X6.501 Y127.513 E16.12823
G1 X6.512 Y126.771 E16.15291
G1 X6.512 Y124.14 E16.24042
G1 X6.503 Y123.71 E16.25472
G1 X6.5 Y123.322 E16.26763
G1 X6.501 Y97.513 E17.12604
G1 X6.512 Y96.771 E17.15072
G1 X6.512 Y94.14 E17.23823
G1 X6.503 Y93.71 E17.25253
G1 X6.5 Y93.322 E17.26544
G1 X6.501 Y87.775 E17.44993
G1 X6.51 Y87.11 E17.47205
G1 X6.563 Y86.174 E17.50323
G1 X6.695 Y85.245 E17.53444
G1 X6.906 Y84.331 E17.56564
G1 X7.194 Y83.439 E17.59682
G1 X7.557 Y82.574 E17.62802
G1 X7.992 Y81.743 E17.65921
G1 X8.496 Y80.953 E17.69038
G1 X9.066 Y80.208 E17.72158
G1 X9.698 Y79.514 E17.7528
G1 X10.386 Y78.877 E17.78399
G1 X11.126 Y78.301 E17.81518
G1 X11.912 Y77.789 E17.84638
G1 X12.739 Y77.347 E17.87756
G1 X13.601 Y76.977 E17.90876
G1 X14.491 Y76.681 E17.93996
G1 X15.403 Y76.463 E17.97115
G0 F6000 X15.745 Y76.807
G1 F1200 X16.659 Y76.693 E18.00178
G1 X17.212 Y76.663 E18.0202
G1 X17.533 Y76.654 E18.03088
G1 X17.83 Y76.65 E18.04076
G1 X201.793 Y76.65 E24.1594
G1 X202.643 Y76.661 E24.18767
G1 X203.562 Y76.714 E24.21829
G1 X204.473 Y76.847 E24.24891
G1 X205.369 Y77.058 E24.27952
G1 X206.243 Y77.346 E24.31013
G1 X207.09 Y77.709 E24.34078
G1 X207.901 Y78.144 E24.37139
G1 X208.671 Y78.648 E24.402
G1 X209.395 Y79.217 E24.43263
G1 X210.067 Y79.847 E24.46326
G1 X210.682 Y80.532 E24.49388
G1 X211.235 Y81.268 E24.5245
G1 X211.722 Y82.049 E24.55511
G1 X212.139 Y82.87 E24.58574
G1 X212.484 Y83.724 E24.61637
G1 X212.753 Y84.604 E24.64698
G1 X212.945 Y85.505 E24.67762
G1 X213.058 Y86.418 E24.70822
G1 X213.087 Y86.962 E24.72634
G1 X213.096 Y87.282 E24.73698
G1 X213.1 Y87.58 E24.7469
G1 X213.099 Y92.954 E24.92564
G1 X213.088 Y93.707 E24.95068
G1 X213.088 Y96.361 E25.03896
G1 X213.097 Y96.787 E25.05313
G1 X213.1 Y97.183 E25.0663
G1 X213.099 Y122.954 E25.92345
G1 X213.088 Y123.707 E25.9485
G1 X213.088 Y126.361 E26.03677
G1 X213.097 Y126.787 E26.05094
G1 X213.1 Y127.183 E26.06411
G1 X213.099 Y132.145 E26.22915
G1 X213.09 Y132.872 E26.25333
G1 X213.039 Y133.791 E26.28394
G1 X212.908 Y134.703 E26.31459
G1 X212.698 Y135.599 E26.3452
G1 X212.412 Y136.474 E26.37581
G1 X212.051 Y137.321 E26.40644
G1 X211.617 Y138.133 E26.43706
G1 X211.115 Y138.905 E26.46769
G1 X210.547 Y139.63 E26.49832
G1 X209.919 Y140.303 E26.52894
G1 X209.235 Y140.919 E26.55955
G1 X208.5 Y141.473 E26.59017
G1 X207.72 Y141.962 E26.62078
G1 X206.9 Y142.381 E26.65141
G1 X206.047 Y142.727 E26.68203
G1 X205.167 Y142.998 E26.71265
G1 X204.267 Y143.191 E26.74327
G1 X203.353 Y143.306 E26.77391
G1 X202.788 Y143.337 E26.79273
G1 X202.467 Y143.346 E26.80341
G1 X202.17 Y143.35 E26.81329
G1 X176.056 Y143.349 E27.68184
G1 X175.353 Y143.339 E27.70523
G1 X174.434 Y143.286 E27.73584
G1 X173.523 Y143.153 E27.76647
G1 X172.627 Y142.942 E27.79708
G1 X171.753 Y142.654 E27.82769
G1 X170.906 Y142.291 E27.85834
G1 X170.095 Y141.856 E27.88895
G1 X168.963 Y141.081 E27.93458
G1 X167.909 Y140.253 E27.97916
G1 X167.605 Y140.008 E27.99214
G1 X165.599 Y138.483 E28.07595
G1 X163.526 Y136.998 E28.16077
G1 X161.452 Y135.599 E28.24397
G1 X159.284 Y134.224 E28.32936
G1 X157.144 Y132.951 E28.41218
G1 X154.897 Y131.698 E28.49775
G1 X152.683 Y130.543 E28.58081
G1 X150.407 Y129.439 E28.66494
G1 X148.098 Y128.398 E28.74918
G1 X145.734 Y127.409 E28.83441
G1 X143.421 Y126.521 E28.91682
G1 X141.021 Y125.676 E29.00145
G1 X138.612 Y124.902 E29.0856
G1 X136.195 Y124.201 E29.16931
G1 X133.727 Y123.56 E29.25412
G1 X131.235 Y122.986 E29.33917
G1 X128.818 Y122.505 E29.42114
G1 X126.304 Y122.075 E29.50597
G1 X123.8 Y121.72 E29.59008
G1 X121.277 Y121.435 E29.67453
G1 X118.752 Y121.221 E29.75881
G1 X116.262 Y121.081 E29.84176
G1 X113.71 Y121.01 E29.92668
G1 X111.199 Y121.012 E30.01019
G1 X108.653 Y121.085 E30.09491
G1 X106.124 Y121.229 E30.17916
G1 X103.621 Y121.444 E30.26272
G1 X101.084 Y121.733 E30.34764
G1 X98.619 Y122.085 E30.43046
G1 X96.108 Y122.517 E30.5152
G1 X93.629 Y123.015 E30.5993
G1 X91.177 Y123.58 E30.68299
G1 X88.731 Y124.218 E30.76707
G1 X86.298 Y124.926 E30.85135
G1 X83.884 Y125.705 E30.93571
G1 X81.495 Y126.55 E31.02
G1 X79.116 Y127.467 E31.1048
G1 X76.816 Y128.43 E31.18773
G1 X74.524 Y129.467 E31.2714
G1 X72.206 Y130.595 E31.35714
G1 X70.002 Y131.746 E31.43984
G1 X67.776 Y132.991 E31.52467
G1 X65.617 Y134.279 E31.60829
G1 X63.482 Y135.636 E31.69243
G1 X61.387 Y137.051 E31.77651
G1 X59.33 Y138.529 E31.86076
G1 X57.272 Y140.097 E31.94681
G1 X56.104 Y141.028 E31.99649
G1 X55.36 Y141.57 E32.02711
G1 X54.572 Y142.046 E32.05773
G1 X53.745 Y142.451 E32.08835
G1 X52.887 Y142.783 E32.11895
G1 X52.002 Y143.039 E32.1496
G1 X51.099 Y143.218 E32.18021
G1 X49.821 Y143.335 E32.2229
G1 X49.495 Y143.345 E32.23375
G1 X49.17 Y143.35 E32.24456
G1 X18.07 Y143.349 E33.27895
G1 X17.372 Y143.34 E33.30216
G1 X16.453 Y143.288 E33.33278
G1 X15.542 Y143.157 E33.36339
G1 X14.646 Y142.947 E33.394
G1 X13.771 Y142.66 E33.42463
G1 X12.924 Y142.298 E33.45526
G1 X12.112 Y141.864 E33.48589
G1 X11.341 Y141.362 E33.51649
G1 X10.616 Y140.794 E33.54712
G1 X9.943 Y140.165 E33.57776
G1 X9.328 Y139.481 E33.60835
G1 X8.774 Y138.746 E33.63896
G1 X8.286 Y137.965 E33.66959
G1 X7.867 Y137.145 E33.70022
G1 X7.521 Y136.292 E33.73084
G1 X7.251 Y135.412 E33.76145
G1 X7.058 Y134.511 E33.7921
G1 X6.944 Y133.598 E33.8227
G1 X6.913 Y133.027 E33.84172
G1 X6.904 Y132.694 E33.8528
G1 X6.9 Y132.408 E33.86232
G1 X6.901 Y127.519 E34.02492
G1 X6.912 Y126.773 E34.04974
G1 X6.912 Y124.131 E34.13761
G1 X6.903 Y123.707 E34.15172
G1 X6.9 Y123.319 E34.16462
G1 X6.901 Y97.519 E35.02274
G1 X6.912 Y96.777 E35.04742
G1 X6.912 Y94.131 E35.13542
G1 X6.903 Y93.707 E35.14953
G1 X6.9 Y93.319 E35.16243
G1 X6.901 Y87.781 E35.34663
G1 X6.91 Y87.116 E35.36875
G1 X6.962 Y86.196 E35.3994
G1 X7.094 Y85.285 E35.43001
G1 X7.305 Y84.389 E35.46063
G1 X7.592 Y83.514 E35.49126
G1 X7.955 Y82.668 E35.52188
G1 X8.389 Y81.856 E35.5525
G1 X8.892 Y81.085 E35.58312
G1 X9.461 Y80.361 E35.61374
G1 X10.089 Y79.689 E35.64434
G1 X10.774 Y79.073 E35.67498
G1 X11.51 Y78.52 E35.7056
G1 X12.291 Y78.032 E35.73623
G1 X13.111 Y77.614 E35.76684
G1 X13.965 Y77.269 E35.79747
G1 X14.845 Y76.999 E35.82809
G1 X15.745 Y76.807 E35.8587
G0 F6000 X15.196 Y77.325
G1 F1200 X16.084 Y77.159 E35.88874
G1 X17.223 Y77.063 E35.92676
G1 X17.544 Y77.054 E35.93744
G1 X17.83 Y77.05 E35.94695
G1 X201.793 Y77.05 E42.06559
G1 X202.637 Y77.061 E42.09366
G1 X203.539 Y77.114 E42.12372
G1 X204.432 Y77.246 E42.15374
G1 X205.31 Y77.457 E42.18377
G1 X206.166 Y77.745 E42.21381
G1 X206.993 Y78.107 E42.24384
G1 X207.785 Y78.542 E42.27389
G1 X208.536 Y79.044 E42.30394
G1 X209.239 Y79.611 E42.33398
G1 X209.889 Y80.238 E42.36401
G1 X210.481 Y80.92 E42.39405
G1 X211.011 Y81.651 E42.42408
G1 X211.473 Y82.427 E42.45412
G1 X211.866 Y83.24 E42.48415
G1 X212.184 Y84.085 E42.51418
G1 X212.427 Y84.955 E42.54423
G1 X212.592 Y85.843 E42.57427
G1 X212.687 Y86.973 E42.61198
G1 X212.696 Y87.293 E42.62263
G1 X212.7 Y87.58 E42.63218
G1 X212.699 Y92.948 E42.81072
G1 X212.688 Y93.704 E42.83587
G1 X212.688 Y96.37 E42.92454
G1 X212.697 Y96.79 E42.93851
G1 X212.7 Y97.186 E42.95168
G1 X212.699 Y122.948 E43.80853
G1 X212.688 Y123.704 E43.83368
G1 X212.688 Y126.37 E43.92235
G1 X212.697 Y126.79 E43.93632
G1 X212.7 Y127.186 E43.94949
G1 X212.699 Y132.14 E44.11426
G1 X212.69 Y132.867 E44.13844
G1 X212.639 Y133.769 E44.16849
G1 X212.508 Y134.663 E44.19854
G1 X212.299 Y135.541 E44.22856
G1 X212.013 Y136.398 E44.25861
G1 X211.652 Y137.226 E44.28866
G1 X211.22 Y138.018 E44.31866
G1 X210.719 Y138.77 E44.34872
G1 X210.153 Y139.474 E44.37876
G1 X209.528 Y140.125 E44.40878
G1 X208.847 Y140.719 E44.43883
G1 X208.116 Y141.25 E44.46888
G1 X207.342 Y141.714 E44.4989
G1 X206.529 Y142.108 E44.52895
G1 X205.685 Y142.428 E44.55897
G1 X204.815 Y142.673 E44.58903
G1 X203.928 Y142.839 E44.61904
G1 X202.777 Y142.937 E44.65746
G1 X202.456 Y142.946 E44.66814
G1 X202.17 Y142.95 E44.67766
G1 X176.062 Y142.949 E45.54601
G1 X175.359 Y142.939 E45.5694
G1 X174.457 Y142.886 E45.59945
G1 X173.564 Y142.754 E45.62947
G1 X172.686 Y142.543 E45.65951
G1 X171.83 Y142.255 E45.68955
G1 X171.003 Y141.893 E45.71957
G1 X170.211 Y141.459 E45.74961
G1 X169.21 Y140.767 E45.79008
G1 X168.16 Y139.942 E45.8345
G1 X167.852 Y139.694 E45.84765
G1 X165.828 Y138.155 E45.93222
G1 X163.761 Y136.674 E46.01679
G1 X161.655 Y135.254 E46.10127
G1 X159.497 Y133.885 E46.18627
G1 X157.337 Y132.6 E46.26987
G1 X155.125 Y131.366 E46.35411
G1 X152.864 Y130.187 E46.43892
G1 X150.568 Y129.073 E46.5238
G1 X148.251 Y128.028 E46.60834
G1 X145.894 Y127.042 E46.69332
G1 X143.548 Y126.143 E46.77688
G1 X141.129 Y125.29 E46.86219
G1 X138.741 Y124.523 E46.94561
G1 X136.311 Y123.818 E47.02977
G1 X133.811 Y123.169 E47.11568
G1 X131.331 Y122.598 E47.20032
G1 X128.892 Y122.112 E47.28304
G1 X126.351 Y121.678 E47.36877
G1 X123.834 Y121.321 E47.45333
G1 X121.319 Y121.037 E47.53751
G1 X118.809 Y120.824 E47.62129
G1 X116.259 Y120.681 E47.70624
G1 X113.721 Y120.61 E47.79068
G1 X111.188 Y120.612 E47.87493
G1 X108.618 Y120.685 E47.96045
G1 X106.135 Y120.827 E48.04317
G1 X103.545 Y121.049 E48.12962
G1 X101.049 Y121.334 E48.21318
G1 X98.572 Y121.688 E48.2964
G1 X96.027 Y122.125 E48.38229
G1 X93.54 Y122.625 E48.46666
G1 X91.084 Y123.191 E48.55049
G1 X88.624 Y123.833 E48.63505
G1 X86.169 Y124.547 E48.72009
G1 X83.764 Y125.323 E48.80414
G1 X81.334 Y126.182 E48.88986
G1 X78.997 Y127.084 E48.97318
G1 X76.663 Y128.061 E49.05734
G1 X74.334 Y129.115 E49.14236
G1 X72.053 Y130.225 E49.22673
G1 X69.786 Y131.409 E49.3118
G1 X67.57 Y132.648 E49.39624
G1 X65.429 Y133.925 E49.47916
G1 X63.24 Y135.316 E49.56542
G1 X61.159 Y136.722 E49.64895
G1 X59.076 Y138.218 E49.73425
G1 X57.058 Y139.755 E49.81862
G1 X55.855 Y140.715 E49.86981
G1 X55.125 Y141.246 E49.89983
G1 X54.35 Y141.711 E49.92989
G1 X53.538 Y142.105 E49.95991
G1 X52.693 Y142.426 E49.98998
G1 X51.824 Y142.671 E50.02001
G1 X50.937 Y142.838 E50.05003
G1 X49.809 Y142.935 E50.08768
G1 X49.483 Y142.945 E50.09853
G1 X49.17 Y142.95 E50.10894
G1 X18.075 Y142.949 E51.14317
G1 X17.377 Y142.94 E51.16638
G1 X16.476 Y142.889 E51.1964
G1 X15.582 Y142.757 E51.22645
G1 X14.704 Y142.548 E51.25647
G1 X13.847 Y142.261 E51.28653
G1 X13.02 Y141.9 E51.31655
G1 X12.227 Y141.467 E51.3466
G1 X11.476 Y140.966 E51.37662
G1 X10.772 Y140.4 E51.40667
G1 X10.121 Y139.774 E51.43671
G1 X9.528 Y139.093 E51.46674
G1 X8.998 Y138.362 E51.49677
G1 X8.534 Y137.587 E51.52681
G1 X8.14 Y136.774 E51.55686
G1 X7.82 Y135.93 E51.58688
G1 X7.576 Y135.06 E51.61694
G1 X7.41 Y134.172 E51.64698
G1 X7.313 Y133.017 E51.68553
G1 X7.304 Y132.684 E51.69661
G1 X7.3 Y132.408 E51.7058
G1 X7.301 Y127.525 E51.8682
G1 X7.312 Y126.773 E51.89322
G1 X7.312 Y124.169 E51.97983
G1 X7.303 Y123.704 E51.9953
G1 X7.3 Y123.316 E52.0082
G1 X7.301 Y97.525 E52.86601
G1 X7.312 Y96.783 E52.8907
G1 X7.312 Y94.169 E52.97764
G1 X7.303 Y93.704 E52.99311
G1 X7.3 Y93.316 E53.00601
G1 X7.301 Y87.786 E53.18994
G1 X7.31 Y87.121 E53.21206
G1 X7.362 Y86.219 E53.24211
G1 X7.494 Y85.326 E53.27214
G1 X7.704 Y84.448 E53.30216
G1 X7.991 Y83.591 E53.33222
