;FLAVOR:Marlin
;TIME:1141
;Filament used: 0.565394m
;Layer height: 0.2
;MINX:93
;MINY:86.252
;MINZ:0.2
;MAXX:127
;MAXY:133.748
;MAXZ:11
;Generated with Creality Slicer 4.8.2-218
M140 S60
M105
M190 S60
M104 S225
M105
M109 S225
M82 ;absolute extrusion mode

G28 ;Home

G92 E0 ;Reset Extruder
G1 Z2.0 F3000 ;Move Z Axis up
G1 X10.1 Y20 Z0.28 F5000.0 ;Move to start position
G1 X10.1 Y200.0 Z0.28 F1500.0 E15 ;Draw the first line
G1 X10.4 Y200.0 Z0.28 F5000.0 ;Move to side a little
G1 X10.4 Y20 Z0.28 F1500.0 E30 ;Draw the second line
G92 E0 ;Reset Extruder
G1 Z2.0 F3000 ;Move Z Axis up

G92 E0
G92 E0
G1 F2700 E-5
;LAYER_COUNT:55
;LAYER:0
M107
G0 F6000 X96.028 Y89.796 Z0.2
;TYPE:SKIRT
G1 F2700 E0
G1 F1200 X96.694 Y89.136 E0.03119
G1 X97.413 Y88.534 E0.06238
G1 X98.181 Y87.995 E0.09358
G1 X98.992 Y87.524 E0.12478
G1 X99.84 Y87.124 E0.15596
G1 X100.719 Y86.797 E0.18715
G1 X101.623 Y86.547 E0.21835
G1 X102.545 Y86.374 E0.24955
G1 X103.478 Y86.281 E0.28074
G1 X103.964 Y86.264 E0.29691
G1 X104.813 Y86.254 E0.32515
G1 X108.808 Y86.257 E0.45802
G1 X113.567 Y86.257 E0.61631
G1 X115.215 Y86.252 E0.67112
G1 X115.419 Y86.253 E0.67791
G1 X116.062 Y86.263 E0.6993
G1 X116.998 Y86.318 E0.73048
G1 X117.927 Y86.452 E0.7617
G1 X118.84 Y86.665 E0.79288
G1 X119.732 Y86.954 E0.82407
G1 X120.596 Y87.319 E0.85526
G1 X121.426 Y87.756 E0.88646
G1 X122.216 Y88.262 E0.91767
G1 X122.959 Y88.833 E0.94883
G1 X123.652 Y89.466 E0.98005
G1 X124.287 Y90.156 E1.01124
G1 X124.862 Y90.897 E1.04243
G1 X125.372 Y91.684 E1.07363
G1 X125.813 Y92.512 E1.10483
G1 X126.058 Y93.086 E1.12558
G1 X126.159 Y93.315 E1.13391
G1 X126.479 Y94.197 E1.16512
G1 X126.775 Y95.357 E1.20493
G1 X126.92 Y96.283 E1.23611
G1 X126.986 Y97.252 E1.26841
G1 X126.997 Y97.713 E1.28375
G1 X127 Y97.975 E1.29246
G1 X126.999 Y121.891 E2.08791
G1 X126.988 Y122.617 E2.11206
G1 X126.934 Y123.553 E2.14325
G1 X126.8 Y124.481 E2.17443
G1 X126.588 Y125.395 E2.20564
G1 X126.428 Y125.917 E2.2238
G1 X126.34 Y126.182 E2.23308
G1 X126.231 Y126.496 E2.24414
G1 X125.873 Y127.363 E2.27534
G1 X125.443 Y128.196 E2.30652
G1 X124.943 Y128.99 E2.33773
G1 X124.377 Y129.738 E2.36892
G1 X123.75 Y130.435 E2.40011
G1 X123.066 Y131.077 E2.43131
G1 X122.329 Y131.657 E2.4625
G1 X121.546 Y132.173 E2.49369
G1 X120.722 Y132.621 E2.52488
G1 X119.862 Y132.996 E2.55609
G1 X118.974 Y133.297 E2.58727
G1 X118.063 Y133.521 E2.61848
G1 X117.137 Y133.666 E2.64965
G1 X116.035 Y133.736 E2.68638
G1 X115.187 Y133.746 E2.71458
G1 X111.192 Y133.743 E2.84746
G1 X106.433 Y133.743 E3.00574
G1 X104.785 Y133.748 E3.06056
G1 X103.922 Y133.735 E3.08926
G1 X102.986 Y133.679 E3.12045
G1 X102.058 Y133.544 E3.15164
G1 X101.145 Y133.33 E3.18283
G1 X100.253 Y133.038 E3.21405
G1 X99.39 Y132.672 E3.24523
G1 X98.561 Y132.234 E3.27641
G1 X97.772 Y131.727 E3.3076
G1 X97.029 Y131.154 E3.33881
G1 X96.338 Y130.52 E3.37
G1 X95.703 Y129.83 E3.40119
G1 X95.13 Y129.088 E3.43237
G1 X94.621 Y128.3 E3.46357
G1 X94.182 Y127.471 E3.49477
G1 X93.946 Y126.94 E3.5141
G1 X93.848 Y126.703 E3.52263
G1 X93.527 Y125.822 E3.55382
G1 X93.225 Y124.647 E3.59417
G1 X93.08 Y123.721 E3.62534
G1 X93.014 Y122.734 E3.65824
G1 X93.003 Y122.239 E3.67471
G1 X93 Y121.995 E3.68283
G1 X93.002 Y104.299 E4.2714
G1 X93 Y103.168 E4.30902
G1 X93.001 Y98.052 E4.47917
G1 X93.012 Y97.372 E4.50179
G1 X93.068 Y96.436 E4.53298
G1 X93.202 Y95.508 E4.56417
G1 X93.416 Y94.594 E4.59539
G1 X93.568 Y94.093 E4.6128
G1 X93.663 Y93.806 E4.62286
G1 X93.996 Y92.929 E4.65406
G1 X94.402 Y92.084 E4.68524
G1 X94.878 Y91.276 E4.71643
G1 X95.422 Y90.512 E4.74762
G1 X96.028 Y89.796 E4.77882
G0 F6000 X96.38 Y90.006
G1 F1200 X97.038 Y89.363 E4.80942
G1 X97.751 Y88.78 E4.84005
G1 X98.511 Y88.26 E4.87068
G1 X99.313 Y87.809 E4.90129
G1 X100.151 Y87.428 E4.9319
G1 X101.02 Y87.122 E4.96255
G1 X101.911 Y86.893 E4.99314
G1 X102.819 Y86.741 E5.02376
G1 X103.97 Y86.664 E5.06213
G1 X104.813 Y86.654 E5.09017
G1 X108.808 Y86.657 E5.22305
G1 X113.568 Y86.657 E5.38137
G1 X115.216 Y86.652 E5.43618
G1 X115.413 Y86.653 E5.44273
G1 X116.056 Y86.663 E5.46412
G1 X116.975 Y86.718 E5.49474
G1 X117.886 Y86.851 E5.52536
G1 X118.782 Y87.064 E5.55599
G1 X119.656 Y87.353 E5.58661
G1 X120.501 Y87.717 E5.61721
G1 X121.312 Y88.153 E5.64784
G1 X122.082 Y88.658 E5.67846
G1 X122.805 Y89.228 E5.70909
G1 X123.476 Y89.858 E5.7397
G1 X124.09 Y90.544 E5.77032
G1 X124.642 Y91.281 E5.80094
G1 X125.128 Y92.063 E5.83157
G1 X125.545 Y92.884 E5.86219
G1 X125.687 Y93.239 E5.87491
G1 X125.789 Y93.467 E5.88322
G1 X126.102 Y94.333 E5.91385
G1 X126.383 Y95.435 E5.95167
G1 X126.524 Y96.345 E5.9823
G1 X126.586 Y97.261 E6.01284
G1 X126.597 Y97.722 E6.02817
G1 X126.6 Y97.975 E6.03659
G1 X126.599 Y121.885 E6.83184
G1 X126.588 Y122.611 E6.85599
G1 X126.534 Y123.53 E6.88661
G1 X126.4 Y124.441 E6.91723
G1 X126.188 Y125.336 E6.94782
G1 X126.049 Y125.791 E6.96365
G1 X125.961 Y126.056 E6.97294
G1 X125.855 Y126.359 E6.98361
G1 X125.503 Y127.21 E7.01424
G1 X125.079 Y128.027 E7.04486
G1 X124.585 Y128.804 E7.07548
G1 X124.026 Y129.536 E7.10611
G1 X123.405 Y130.216 E7.13674
G1 X122.728 Y130.839 E7.16734
G1 X121.999 Y131.402 E7.19798
G1 X121.224 Y131.899 E7.2286
G1 X120.409 Y132.327 E7.25922
G1 X119.56 Y132.683 E7.28984
G1 X118.683 Y132.963 E7.32046
G1 X117.785 Y133.167 E7.35109
G1 X116.873 Y133.292 E7.3817
G1 X116.03 Y133.336 E7.40978
G1 X115.187 Y133.346 E7.43782
G1 X111.192 Y133.343 E7.57069
G1 X106.432 Y133.343 E7.72901
G1 X104.784 Y133.348 E7.78383
G1 X103.929 Y133.335 E7.81227
G1 X103.01 Y133.28 E7.84289
G1 X102.1 Y133.144 E7.87349
G1 X101.204 Y132.931 E7.90412
G1 X100.33 Y132.64 E7.93476
G1 X99.485 Y132.275 E7.96537
G1 X98.675 Y131.837 E7.996
G1 X97.906 Y131.331 E8.02662
G1 X97.184 Y130.76 E8.05724
G1 X96.514 Y130.129 E8.08785
G1 X95.901 Y129.442 E8.11847
G1 X95.35 Y128.704 E8.1491
G1 X94.865 Y127.922 E8.17971
G1 X94.315 Y126.787 E8.22166
G1 X94.217 Y126.55 E8.23019
G1 X93.903 Y125.685 E8.26079
G1 X93.617 Y124.569 E8.29911
G1 X93.476 Y123.659 E8.32974
G1 X93.414 Y122.725 E8.36087
G1 X93.403 Y122.23 E8.37734
G1 X93.4 Y121.995 E8.38516
G1 X93.402 Y104.299 E8.97373
G1 X93.4 Y103.167 E9.01138
G1 X93.401 Y98.059 E9.18127
G1 X93.412 Y97.379 E9.20389
G1 X93.467 Y96.46 E9.23451
G1 X93.602 Y95.549 E9.26514
G1 X93.948 Y94.219 E9.31085
G1 X94.043 Y93.932 E9.32091
G1 X94.37 Y93.071 E9.35154
G1 X94.77 Y92.242 E9.38215
G1 X95.241 Y91.451 E9.41277
G1 X95.779 Y90.704 E9.44339
G1 X96.38 Y90.006 E9.47403
G0 F6000 X96.73 Y90.218
G1 F1200 X97.382 Y89.593 E9.50407
G1 X98.087 Y89.028 E9.53412
G1 X98.839 Y88.528 E9.56415
G1 X99.632 Y88.096 E9.59419
G1 X100.461 Y87.737 E9.62424
G1 X101.318 Y87.451 E9.65428
G1 X102.197 Y87.243 E9.68433
G1 X103.09 Y87.114 E9.71434
G1 X103.975 Y87.064 E9.74382
G1 X104.813 Y87.054 E9.77169
G1 X108.808 Y87.057 E9.90457
G1 X113.569 Y87.057 E10.06292
G1 X115.407 Y87.053 E10.12405
G1 X116.05 Y87.063 E10.14544
G1 X116.951 Y87.117 E10.17546
G1 X117.844 Y87.251 E10.2055
G1 X118.722 Y87.463 E10.23554
G1 X119.578 Y87.752 E10.26559
G1 X120.405 Y88.115 E10.29563
G1 X121.196 Y88.55 E10.32565
G1 X121.946 Y89.053 E10.35569
G1 X122.648 Y89.621 E10.38572
G1 X123.297 Y90.249 E10.41576
G1 X123.889 Y90.931 E10.44579
G1 X124.417 Y91.664 E10.47584
G1 X124.879 Y92.44 E10.50588
G1 X125.27 Y93.254 E10.53591
G1 X125.419 Y93.619 E10.54903
G1 X125.726 Y94.469 E10.57908
G1 X125.991 Y95.514 E10.61494
G1 X126.129 Y96.406 E10.64496
G1 X126.186 Y97.271 E10.6738
G1 X126.197 Y97.732 E10.68913
G1 X126.2 Y97.975 E10.69722
G1 X126.199 Y121.879 E11.49227
G1 X126.188 Y122.605 E11.51642
G1 X126.134 Y123.506 E11.54644
G1 X126.001 Y124.399 E11.57647
G1 X125.669 Y125.665 E11.62
G1 X125.581 Y125.93 E11.62928
G1 X125.479 Y126.223 E11.6396
G1 X125.133 Y127.057 E11.66963
G1 X124.715 Y127.857 E11.69966
G1 X124.227 Y128.618 E11.72972
G1 X123.674 Y129.332 E11.75976
G1 X123.061 Y129.994 E11.78977
G1 X122.391 Y130.6 E11.81982
G1 X121.67 Y131.144 E11.84986
G1 X120.903 Y131.622 E11.87992
G1 X120.098 Y132.03 E11.90993
G1 X119.259 Y132.365 E11.93998
G1 X118.394 Y132.626 E11.97003
G1 X117.51 Y132.808 E12.00005
G1 X116.613 Y132.912 E12.03008
G1 X116.025 Y132.936 E12.04966
G1 X115.187 Y132.946 E12.07753
G1 X111.192 Y132.943 E12.21041
G1 X106.431 Y132.943 E12.36876
G1 X104.783 Y132.948 E12.42357
G1 X103.936 Y132.935 E12.45174
G1 X103.035 Y132.88 E12.48177
G1 X102.142 Y132.745 E12.51181
G1 X101.264 Y132.532 E12.54186
G1 X100.409 Y132.241 E12.5719
G1 X99.583 Y131.877 E12.60192
G1 X98.792 Y131.44 E12.63197
G1 X98.043 Y130.936 E12.662
G1 X97.342 Y130.367 E12.69203
G1 X96.693 Y129.738 E12.72209
G1 X96.103 Y129.055 E12.75211
G1 X95.576 Y128.322 E12.78214
G1 X95.115 Y127.545 E12.81219
G1 X94.685 Y126.635 E12.84566
G1 X94.587 Y126.398 E12.85419
G1 X94.279 Y125.549 E12.88423
G1 X94.009 Y124.49 E12.92058
G1 X93.871 Y123.598 E12.9506
G1 X93.814 Y122.717 E12.97996
G1 X93.8 Y121.995 E13.00398
G1 X93.802 Y104.299 E13.59255
G1 X93.8 Y103.167 E13.6302
G1 X93.801 Y98.065 E13.7999
G1 X93.812 Y97.385 E13.82252
G1 X93.867 Y96.484 E13.85254
G1 X94.001 Y95.59 E13.88261
G1 X94.328 Y94.345 E13.92542
G1 X94.423 Y94.058 E13.93548
G1 X94.744 Y93.214 E13.96551
G1 X95.139 Y92.402 E13.99554
G1 X95.604 Y91.627 E14.0256
G1 X96.136 Y90.898 E14.05562
G1 X96.73 Y90.218 E14.08565
G1 F2700 E9.08565
G0 F6000 X103.339 Y103.657
G0 X107.801 Y107.635
G0 X107.801 Y108.1
G1 F2700 E14.08565
G1 F1200 X112.2 Y108.1 E14.23196
G1 X112.2 Y111.9 E14.35835
G1 X107.801 Y111.9 E14.50466
G1 X107.801 Y108.1 E14.63105
G0 F6000 X107.401 Y107.7
G1 F1200 X112.6 Y107.7 E14.80397
G1 X112.6 Y112.3 E14.95696
G1 X107.401 Y112.3 E15.12988
G1 X107.401 Y107.7 E15.28288
G0 F6000 X107.001 Y107.3
G1 F1200 X113 Y107.3 E15.48241
G1 X113 Y112.7 E15.66201
G1 X107.001 Y112.7 E15.86154
G1 X107.001 Y107.3 E16.04115
G0 F6000 X106.602 Y106.9
G1 F1200 X113.4 Y106.9 E16.26725
G1 X113.4 Y113.1 E16.47346
G1 X106.6 Y113.1 E16.69963
G1 X106.602 Y106.9 E16.90584
G0 F6000 X106.202 Y106.5
G1 F1200 X113.8 Y106.5 E17.15855
G1 X113.8 Y113.5 E17.39137
G1 X106.2 Y113.5 E17.64415
G1 X106.202 Y106.5 E17.87697
G0 F6000 X105.802 Y106.1
G1 F1200 X114.2 Y106.1 E18.15629
G1 X114.2 Y113.9 E18.41572
G1 X105.8 Y113.9 E18.6951
G1 X105.802 Y106.1 E18.95453
G0 F6000 X105.402 Y105.7
G1 F1200 X114.6 Y105.7 E19.26046
G1 X114.6 Y114.3 E19.5465
G1 X105.4 Y114.3 E19.85249
G1 X105.402 Y105.7 E20.13853
G0 F6000 X105.002 Y105.3
G1 F1200 X115 Y105.3 E20.47106
G1 X115 Y114.7 E20.78371
G1 X105 Y114.7 E21.11631
G1 X105.002 Y105.3 E21.42895
G0 F6000 X104.602 Y104.9
G1 F1200 X115.4 Y104.9 E21.7881
G1 X115.4 Y115.1 E22.12735
G1 X104.6 Y115.1 E22.48656
G1 X104.602 Y104.9 E22.82581
G0 F6000 X104.202 Y104.5
G1 F1200 X115.8 Y104.5 E23.21157
G1 X115.8 Y115.5 E23.57743
G1 X104.2 Y115.5 E23.96324
G1 X104.202 Y104.5 E24.32911
G1 F2700 E19.32911
G0 F6000 X108.201 Y107.635
G0 X108.201 Y108.5
;TYPE:SUPPORT
G1 F2700 E24.32911
G1 F1200 X111.8 Y108.5 E24.44881
G1 X111.8 Y111.5 E24.54859
G1 X108.201 Y111.5 E24.66829
G1 X108.201 Y108.5 E24.76807
G0 F6000 X108.601 Y108.9
G1 F1200 X111.4 Y108.9 E24.86117
G1 X111.4 Y111.1 E24.93434
G1 X108.601 Y111.1 E25.02744
G1 X108.601 Y108.9 E25.10061
G0 F6000 X108.801 Y110
G1 F1200 X111.2 Y110 E25.1804
G0 F6000 X110 Y109.1
G1 F1200 X110 Y110.9 E25.24027
G1 F2700 E20.24027
;MESH:MotorHolder.stl
G0 F6000 X110 Y112.365
G0 X110 Y115.835
G0 X110 Y116.92
G0 X111.009 Y117.985
G0 X111.321 Y118.454
G0 X111.434 Y119.008
G0 X111.321 Y119.562
G0 X111.009 Y120.031
G0 X109.986 Y120.62
;TYPE:WALL-INNER
G1 F2700 E25.24027
G1 F1200 X110.602 Y120.497 E25.26116
G1 X111.126 Y120.147 E25.28212
G1 X111.474 Y119.625 E25.30298
G1 X111.598 Y119.008 E25.32392
G1 X111.474 Y118.391 E25.34485
G1 X111.126 Y117.869 E25.36571
G1 X110.602 Y117.519 E25.38667
G1 X110.496 Y117.497 E25.39027
G1 X109.986 Y117.396 E25.40757
G1 X109.475 Y117.497 E25.42489
G1 X109.369 Y117.519 E25.42849
G1 X108.845 Y117.869 E25.44945
G1 X108.497 Y118.391 E25.47032
G1 X108.374 Y119.008 E25.49124
G1 X108.497 Y119.625 E25.51217
G1 X108.845 Y120.147 E25.53303
G1 X109.369 Y120.497 E25.55399
G1 X109.986 Y120.62 E25.57492
G0 F6000 X109.986 Y120.212
;TYPE:WALL-OUTER
G1 F1200 X110.446 Y120.12 E25.59052
G1 X110.837 Y119.859 E25.60616
G1 X111.097 Y119.469 E25.62175
G1 X111.19 Y119.008 E25.63739
G1 X111.097 Y118.547 E25.65303
G1 X110.837 Y118.157 E25.66862
G1 X110.446 Y117.896 E25.68425
G1 X109.986 Y117.804 E25.69986
G1 X109.525 Y117.896 E25.71549
G1 X109.134 Y118.157 E25.73113
G1 X108.874 Y118.547 E25.74672
G1 X108.782 Y119.008 E25.76235
G1 X108.874 Y119.469 E25.77799
G1 X109.134 Y119.859 E25.79358
G1 X109.525 Y120.12 E25.80921
G1 X109.986 Y120.212 E25.82485
G0 F6000 X109.986 Y120.652
G0 X108.335 Y119.692
G0 X108.722 Y117.746
G0 X109.381 Y117.307
G0 X104.782 Y117.282
G0 X104.6 Y122.148
;TYPE:WALL-INNER
G1 F1200 X104.6 Y121.948 E25.8315
G1 X104.6 Y117.1 E25.99275
G1 X109.465 Y117.1 E26.15456
G1 X109.986 Y117.1 E26.16966
G1 X110.506 Y117.1 E26.18474
G1 X115.4 Y117.1 E26.34751
G1 X115.4 Y121.948 E26.50876
G1 X115.4 Y122.147 E26.51538
G1 X115.201 Y122.147 E26.51966
G1 X111.2 Y122.143 E26.65273
G1 X106.4 Y122.143 E26.81238
G1 X104.8 Y122.148 E26.8656
G1 X104.6 Y122.148 E26.86991
G0 F6000 X104.236 Y122.547
;TYPE:WALL-OUTER
G1 F1200 X104.2 Y122.297 E26.87831
G1 X104.2 Y116.7 E27.06446
G1 X115.8 Y116.7 E27.45028
G1 X115.8 Y122.432 E27.64093
G1 X115.777 Y122.547 E27.64483
G1 X111.2 Y122.543 E27.79706
G1 X106.4 Y122.543 E27.95671
G1 X104.682 Y122.548 E28.01385
G1 X104.236 Y122.547 E28.02868
G0 F6000 X104.475 Y122.272
G0 X104.71 Y121.757
G0 X104.99 Y121.757
;TYPE:SKIN
G1 F1200 X104.99 Y117.49 E28.1706
G1 X108.711 Y117.49 E28.29437
G1 X108.564 Y117.588 E28.30024
G1 X108.13 Y118.239 E28.32626
G1 X107.976 Y119.008 E28.35235
G1 X108.13 Y119.777 E28.37843
G1 X108.564 Y120.428 E28.40446
G1 X109.217 Y120.864 E28.43057
G1 X109.986 Y121.018 E28.45666
G1 X110.754 Y120.864 E28.48271
G1 X111.407 Y120.428 E28.50882
G1 X111.841 Y119.777 E28.53485
G1 X111.996 Y119.008 E28.56094
G1 X111.841 Y118.239 E28.58703
G1 X111.407 Y117.588 E28.61305
G1 X111.26 Y117.49 E28.61893
G1 X115.01 Y117.49 E28.74366
G1 X115.01 Y121.757 E28.88558
G1 X111.2 Y121.753 E29.0123
G1 X106.4 Y121.753 E29.17195
G1 X104.99 Y121.757 E29.21884
G0 F6000 X105.754 Y121.594
G1 F1200 X105.149 Y120.988 E29.24732
G0 F6000 X105.149 Y120.423
G1 F1200 X106.319 Y121.592 E29.30233
G0 F6000 X106.884 Y121.591
G1 F1200 X105.149 Y119.857 E29.38392
G0 F6000 X105.149 Y119.291
G1 F1200 X107.449 Y121.591 E29.4921
G0 F6000 X108.015 Y121.591
G1 F1200 X105.149 Y118.726 E29.62689
G0 F6000 X105.149 Y118.16
G1 F1200 X108.581 Y121.591 E29.7883
G0 F6000 X109.146 Y121.591
G1 F1200 X105.204 Y117.649 E29.97372
G0 F6000 X105.769 Y117.649
G1 F1200 X108.02 Y119.899 E30.07957
G0 F6000 X107.842 Y119.156
G1 F1200 X106.335 Y117.649 E30.15046
G0 F6000 X106.901 Y117.649
G1 F1200 X107.887 Y118.635 E30.19683
G0 F6000 X107.985 Y118.168
G1 F1200 X107.466 Y117.649 E30.22125
G0 F6000 X108.032 Y117.649
G1 F1200 X108.212 Y117.828 E30.22969
G0 F6000 X108.577 Y118.072
G0 X108.538 Y119.008
G0 X108.628 Y119.456
G0 X109.325 Y120.603
G0 X109.094 Y120.973
G1 F1200 X109.712 Y121.591 E30.25876
G0 F6000 X109.837 Y121.15
G1 F1200 X110.278 Y121.591 E30.2795
G0 F6000 X110.358 Y121.106
G1 F1200 X110.843 Y121.591 E30.30232
G0 F6000 X111.409 Y121.591
G1 F1200 X110.825 Y121.007 E30.32978
G0 F6000 X111.164 Y120.781
G1 F1200 X111.976 Y121.592 E30.36796
G0 F6000 X112.542 Y121.593
G1 F1200 X111.503 Y120.554 E30.41683
G0 F6000 X111.735 Y120.22
G1 F1200 X113.108 Y121.594 E30.48143
G0 F6000 X113.675 Y121.594
G1 F1200 X111.961 Y119.881 E30.56203
G0 F6000 X112.073 Y119.427
G1 F1200 X114.24 Y121.594 E30.66396
G0 F6000 X114.807 Y121.595
